;FLAVOR:Marlin
;TIME:2410
;Filament used: 0.689758m
;Layer height: 0.1
;MINX:127.2
;MINY:132.2
;MINZ:0.3
;MAXX:172.8
;MAXY:167.8
;MAXZ:8
;Generated with Cura_SteamEngine master
M140 S60
M105
M190 S60
M104 S200
M105
M109 S200
M82 ;absolute extrusion mode

G21 ;metric values
G90 ;absolute positioning
M82 ;set extruder to absolute mode
M107 ;start with the fan off
G28 ;move X/Y/Z to min endstops
G29 ;auto level
G1 Z15.0 F9000 ;move the platform down 15mm
G92 E0 ;zero the extruded length
G1 F200 E3 ;extrude 3mm of feed stock
G92 E0 ;zero the extruded length again
G1 F9000
;Put printing message on LCD screen
M117 Printing...
G92 E0
G92 E0
G1 F1500 E-6.5
;LAYER_COUNT:78
;LAYER:0
M107
M204 S1000
G0 F7500 X129.623 Y143.776 Z0.3
;TYPE:SKIRT
G1 F1500 E0
G1 X130.222 Y143.261 E0.03941
G1 X130.87 Y142.81 E0.0788
G1 X131.561 Y142.426 E0.11824
G1 X132.286 Y142.114 E0.15762
G1 X133.039 Y141.877 E0.197
G1 X133.813 Y141.718 E0.23642
G1 X134.598 Y141.637 E0.27579
G1 X134.999 Y141.627 E0.29581
G1 X141.127 Y141.627 E0.60153
G1 X141.127 Y139.999 E0.68275
G1 X141.167 Y139.211 E0.72212
G1 X141.287 Y138.43 E0.76154
G1 X141.485 Y137.665 E0.80096
G1 X141.759 Y136.925 E0.84033
G1 X142.106 Y136.216 E0.87971
G1 X142.524 Y135.546 E0.91911
G1 X143.007 Y134.921 E0.95852
G1 X143.551 Y134.348 E0.99794
G1 X144.15 Y133.834 E1.03732
G1 X144.798 Y133.382 E1.07673
G1 X145.488 Y132.999 E1.1161
G1 X146.214 Y132.687 E1.15553
G1 X146.967 Y132.45 E1.19491
G1 X147.741 Y132.291 E1.23433
G1 X148.526 Y132.21 E1.2737
G1 X148.927 Y132.2 E1.29372
G1 X151.073 Y132.2 E1.40078
G1 X151.862 Y132.24 E1.4402
G1 X152.642 Y132.359 E1.47956
G1 X153.407 Y132.557 E1.51898
G1 X154.147 Y132.831 E1.55835
G1 X154.856 Y133.179 E1.59775
G1 X155.527 Y133.597 E1.6372
G1 X156.151 Y134.08 E1.67656
G1 X156.724 Y134.623 E1.71595
G1 X157.239 Y135.222 E1.75536
G1 X157.69 Y135.87 E1.79475
G1 X158.074 Y136.561 E1.83419
G1 X158.386 Y137.286 E1.87356
G1 X158.623 Y138.039 E1.91295
G1 X158.782 Y138.813 E1.95237
G1 X158.863 Y139.598 E1.99174
G1 X158.873 Y139.999 E2.01175
G1 X158.873 Y141.627 E2.09297
G1 X165.001 Y141.627 E2.3987
G1 X165.789 Y141.667 E2.43807
G1 X166.57 Y141.787 E2.47749
G1 X167.334 Y141.984 E2.51685
G1 X168.075 Y142.259 E2.55628
G1 X168.784 Y142.606 E2.59566
G1 X169.454 Y143.024 E2.63506
G1 X170.079 Y143.507 E2.67447
G1 X170.651 Y144.051 E2.71385
G1 X171.166 Y144.65 E2.75326
G1 X171.617 Y145.298 E2.79265
G1 X172.001 Y145.988 E2.83205
G1 X172.313 Y146.714 E2.87147
G1 X172.55 Y147.467 E2.91085
G1 X172.709 Y148.24 E2.95023
G1 X172.79 Y149.026 E2.98965
G1 X172.8 Y149.427 E3.00966
G1 X172.8 Y151.573 E3.11672
G1 X172.76 Y152.362 E3.15614
G1 X172.641 Y153.142 E3.1955
G1 X172.443 Y153.907 E3.23493
G1 X172.169 Y154.647 E3.2743
G1 X171.821 Y155.356 E3.3137
G1 X171.403 Y156.027 E3.35314
G1 X170.92 Y156.651 E3.39251
G1 X170.377 Y157.224 E3.43189
G1 X169.778 Y157.739 E3.4713
G1 X169.13 Y158.19 E3.51069
G1 X168.439 Y158.574 E3.55013
G1 X167.714 Y158.886 E3.58951
G1 X166.961 Y159.123 E3.62889
G1 X166.187 Y159.282 E3.66831
G1 X165.402 Y159.363 E3.70768
G1 X165.001 Y159.373 E3.7277
G1 X164.373 Y159.373 E3.75903
G1 X164.373 Y160.001 E3.79036
G1 X164.333 Y160.79 E3.82977
G1 X164.213 Y161.57 E3.86915
G1 X164.015 Y162.335 E3.90857
G1 X163.741 Y163.075 E3.94794
G1 X163.394 Y163.784 E3.98732
G1 X162.976 Y164.454 E4.02672
G1 X162.493 Y165.079 E4.06612
G1 X161.949 Y165.652 E4.10554
G1 X161.35 Y166.166 E4.14492
G1 X160.702 Y166.618 E4.18434
G1 X160.012 Y167.001 E4.22371
G1 X159.286 Y167.313 E4.26313
G1 X158.533 Y167.55 E4.30252
G1 X157.759 Y167.709 E4.34194
G1 X156.974 Y167.79 E4.38131
G1 X156.573 Y167.8 E4.40132
G1 X154.427 Y167.8 E4.50839
G1 X153.638 Y167.76 E4.5478
G1 X152.858 Y167.641 E4.58717
G1 X152.093 Y167.443 E4.62659
G1 X151.353 Y167.169 E4.66596
G1 X150.644 Y166.821 E4.70536
G1 X149.993 Y166.415 E4.74364
G1 X149.703 Y166.617 E4.76127
G1 X149.012 Y167.001 E4.80071
G1 X148.287 Y167.313 E4.84009
G1 X147.534 Y167.55 E4.87947
G1 X146.76 Y167.709 E4.91889
G1 X145.975 Y167.79 E4.95826
G1 X145.573 Y167.8 E4.97833
G1 X143.427 Y167.8 E5.08539
G1 X142.638 Y167.76 E5.1248
G1 X141.858 Y167.641 E5.16417
G1 X141.093 Y167.443 E5.20359
G1 X140.353 Y167.169 E5.24296
G1 X139.644 Y166.821 E5.28236
G1 X138.973 Y166.403 E5.32181
G1 X138.349 Y165.92 E5.36117
G1 X137.776 Y165.377 E5.40056
G1 X137.261 Y164.778 E5.43997
G1 X136.81 Y164.13 E5.47936
G1 X136.426 Y163.439 E5.5188
G1 X136.114 Y162.714 E5.55817
G1 X135.877 Y161.961 E5.59756
G1 X135.718 Y161.187 E5.63698
G1 X135.637 Y160.402 E5.67635
G1 X135.627 Y160.001 E5.69636
G1 X135.627 Y159.373 E5.72769
G1 X134.999 Y159.373 E5.75902
G1 X134.21 Y159.333 E5.79844
G1 X133.43 Y159.213 E5.83781
G1 X132.665 Y159.015 E5.87723
G1 X131.925 Y158.741 E5.9166
G1 X131.216 Y158.394 E5.95598
G1 X130.546 Y157.976 E5.99538
G1 X129.921 Y157.493 E6.03479
G1 X129.348 Y156.949 E6.07421
G1 X128.834 Y156.35 E6.11359
G1 X128.382 Y155.702 E6.153
G1 X127.999 Y155.012 E6.19238
G1 X127.687 Y154.286 E6.2318
G1 X127.45 Y153.533 E6.27118
G1 X127.291 Y152.759 E6.3106
G1 X127.21 Y151.974 E6.34998
G1 X127.2 Y151.573 E6.36999
G1 X127.2 Y149.427 E6.47705
G1 X127.24 Y148.638 E6.51647
G1 X127.359 Y147.858 E6.55583
G1 X127.557 Y147.093 E6.59525
G1 X127.831 Y146.353 E6.63462
G1 X128.179 Y145.644 E6.67403
G1 X128.597 Y144.973 E6.71347
G1 X129.08 Y144.349 E6.75283
G1 X129.623 Y143.776 E6.79222
G0 F7500 X130.016 Y143.957
G1 F1500 X130.611 Y143.469 E6.83061
G1 X131.253 Y143.046 E6.86897
G1 X131.936 Y142.691 E6.90737
G1 X132.651 Y142.41 E6.9457
G1 X133.393 Y142.204 E6.98412
G1 X134.151 Y142.076 E7.02247
G1 X134.999 Y142.027 E7.06485
G1 X141.527 Y142.027 E7.39053
G1 X141.527 Y139.999 E7.49171
G1 X141.567 Y139.231 E7.53007
G1 X141.687 Y138.471 E7.56846
G1 X141.884 Y137.728 E7.60681
G1 X142.158 Y137.009 E7.6452
G1 X142.505 Y136.323 E7.68355
G1 X142.922 Y135.676 E7.72195
G1 X143.403 Y135.076 E7.76032
G1 X143.944 Y134.529 E7.7987
G1 X144.539 Y134.042 E7.83706
G1 X145.181 Y133.618 E7.87545
G1 X145.863 Y133.264 E7.91378
G1 X146.579 Y132.982 E7.95217
G1 X147.32 Y132.777 E7.99053
G1 X148.079 Y132.649 E8.02893
G1 X148.927 Y132.6 E8.07131
G1 X151.073 Y132.6 E8.17837
G1 X151.841 Y132.64 E8.21674
G1 X152.601 Y132.759 E8.25512
G1 X153.344 Y132.957 E8.29348
G1 X154.063 Y133.231 E8.33187
G1 X154.749 Y133.578 E8.37022
G1 X155.396 Y133.994 E8.4086
G1 X155.996 Y134.475 E8.44697
G1 X156.543 Y135.016 E8.48535
G1 X157.031 Y135.611 E8.52374
G1 X157.454 Y136.253 E8.5621
G1 X157.809 Y136.936 E8.6005
G1 X158.09 Y137.651 E8.63883
G1 X158.296 Y138.393 E8.67725
G1 X158.424 Y139.151 E8.7156
G1 X158.473 Y139.999 E8.75798
G1 X158.473 Y142.027 E8.85915
G1 X165.001 Y142.027 E9.18484
G1 X165.769 Y142.067 E9.2232
G1 X166.528 Y142.187 E9.26154
G1 X167.272 Y142.384 E9.29994
G1 X167.991 Y142.658 E9.33833
G1 X168.677 Y143.005 E9.37668
G1 X169.324 Y143.422 E9.41508
G1 X169.924 Y143.903 E9.45345
G1 X170.47 Y144.444 E9.4918
G1 X170.958 Y145.038 E9.53015
G1 X171.382 Y145.681 E9.56857
G1 X171.736 Y146.363 E9.60691
G1 X172.018 Y147.079 E9.6453
G1 X172.223 Y147.82 E9.68366
G1 X172.351 Y148.579 E9.72206
G1 X172.4 Y149.427 E9.76444
G1 X172.4 Y151.573 E9.8715
G1 X172.36 Y152.341 E9.90987
G1 X172.241 Y153.101 E9.94825
G1 X172.043 Y153.844 E9.98661
G1 X171.769 Y154.563 E10.025
G1 X171.422 Y155.249 E10.06335
G1 X171.006 Y155.896 E10.10173
G1 X170.525 Y156.496 E10.14009
G1 X169.984 Y157.043 E10.17848
G1 X169.389 Y157.531 E10.21687
G1 X168.747 Y157.954 E10.25522
G1 X168.064 Y158.309 E10.29363
G1 X167.349 Y158.59 E10.33196
G1 X166.607 Y158.796 E10.37037
G1 X165.849 Y158.924 E10.40873
G1 X165.001 Y158.973 E10.4511
G1 X163.973 Y158.973 E10.50239
G1 X163.973 Y160.001 E10.55368
G1 X163.933 Y160.769 E10.59205
G1 X163.813 Y161.529 E10.63043
G1 X163.616 Y162.272 E10.66878
G1 X163.342 Y162.991 E10.70717
G1 X162.995 Y163.677 E10.74552
G1 X162.578 Y164.324 E10.78392
G1 X162.097 Y164.924 E10.82229
G1 X161.556 Y165.471 E10.86067
G1 X160.961 Y165.958 E10.89903
G1 X160.319 Y166.382 E10.93742
G1 X159.636 Y166.736 E10.9758
G1 X158.921 Y167.018 E11.01414
G1 X158.18 Y167.223 E11.0525
G1 X157.421 Y167.351 E11.0909
G1 X156.573 Y167.4 E11.13328
G1 X154.427 Y167.4 E11.24034
G1 X153.659 Y167.36 E11.27871
G1 X152.899 Y167.241 E11.31709
G1 X152.156 Y167.043 E11.35545
G1 X151.437 Y166.769 E11.39384
G1 X150.751 Y166.422 E11.43219
G1 X150.104 Y166.006 E11.47057
G1 X150.003 Y165.925 E11.47703
G1 X149.962 Y165.958 E11.47965
G1 X149.32 Y166.381 E11.51801
G1 X148.637 Y166.736 E11.55641
G1 X147.922 Y167.017 E11.59474
G1 X147.18 Y167.223 E11.63316
G1 X146.422 Y167.351 E11.67151
G1 X145.573 Y167.4 E11.71394
G1 X143.427 Y167.4 E11.821
G1 X142.659 Y167.36 E11.85937
G1 X141.899 Y167.241 E11.89775
G1 X141.156 Y167.043 E11.93611
G1 X140.437 Y166.769 E11.9745
G1 X139.751 Y166.422 E12.01285
G1 X139.104 Y166.006 E12.05123
G1 X138.504 Y165.525 E12.08959
G1 X137.957 Y164.984 E12.12798
G1 X137.469 Y164.389 E12.16637
G1 X137.046 Y163.747 E12.20473
G1 X136.691 Y163.064 E12.24313
G1 X136.41 Y162.349 E12.28146
G1 X136.204 Y161.607 E12.31987
G1 X136.076 Y160.849 E12.35823
G1 X136.027 Y160.001 E12.4006
G1 X136.027 Y158.973 E12.45189
G1 X134.999 Y158.973 E12.50318
G1 X134.231 Y158.933 E12.54155
G1 X133.471 Y158.813 E12.57993
G1 X132.728 Y158.616 E12.61828
G1 X132.009 Y158.342 E12.65667
G1 X131.323 Y157.995 E12.69502
G1 X130.676 Y157.578 E12.73343
G1 X130.076 Y157.097 E12.77179
G1 X129.529 Y156.556 E12.81017
G1 X129.042 Y155.961 E12.84853
G1 X128.618 Y155.319 E12.88692
G1 X128.264 Y154.636 E12.9253
G1 X127.982 Y153.921 E12.96364
G1 X127.777 Y153.18 E13.002
G1 X127.649 Y152.421 E13.0404
G1 X127.6 Y151.573 E13.08278
G1 X127.6 Y149.427 E13.18984
G1 X127.64 Y148.659 E13.22821
G1 X127.759 Y147.899 E13.26659
G1 X127.957 Y147.156 E13.30495
G1 X128.231 Y146.437 E13.34334
G1 X128.578 Y145.751 E13.38169
G1 X128.994 Y145.104 E13.42007
G1 X129.475 Y144.504 E13.45844
G1 X130.016 Y143.957 E13.49682
G0 F7500 X130.408 Y144.143
G1 F1500 X130.998 Y143.684 E13.53411
G1 X131.634 Y143.289 E13.57146
G1 X132.308 Y142.965 E13.60877
G1 X133.013 Y142.715 E13.64609
G1 X133.741 Y142.541 E13.68343
G1 X134.483 Y142.446 E13.72076
G1 X134.999 Y142.427 E13.74652
G1 X141.927 Y142.427 E14.09216
G1 X141.927 Y139.999 E14.21329
G1 X141.967 Y139.252 E14.25061
G1 X142.087 Y138.514 E14.28791
G1 X142.284 Y137.792 E14.32525
G1 X142.558 Y137.096 E14.36257
G1 X142.904 Y136.433 E14.39988
G1 X143.319 Y135.811 E14.43718
G1 X143.798 Y135.236 E14.47452
G1 X144.336 Y134.716 E14.51185
G1 X144.926 Y134.256 E14.54917
G1 X145.562 Y133.862 E14.5865
G1 X146.236 Y133.538 E14.62381
G1 X146.941 Y133.288 E14.66113
G1 X147.669 Y133.114 E14.69847
G1 X148.411 Y133.019 E14.73579
G1 X148.927 Y133 E14.76155
G1 X151.073 Y133 E14.86862
G1 X151.82 Y133.04 E14.90594
G1 X152.558 Y133.159 E14.94323
G1 X153.28 Y133.357 E14.98058
G1 X153.976 Y133.63 E15.01788
G1 X154.639 Y133.977 E15.05522
G1 X155.262 Y134.392 E15.09256
G1 X155.836 Y134.871 E15.12986
G1 X156.357 Y135.408 E15.16719
G1 X156.816 Y135.998 E15.20448
G1 X157.211 Y136.634 E15.24183
G1 X157.535 Y137.308 E15.27914
G1 X157.785 Y138.013 E15.31646
G1 X157.959 Y138.741 E15.3538
G1 X158.054 Y139.483 E15.39113
G1 X158.073 Y139.999 E15.41689
G1 X158.073 Y142.427 E15.53802
G1 X165.001 Y142.427 E15.88366
G1 X165.747 Y142.467 E15.92093
G1 X166.486 Y142.587 E15.95828
G1 X167.207 Y142.784 E15.99557
G1 X167.904 Y143.058 E16.03294
G1 X168.567 Y143.404 E16.07025
G1 X169.189 Y143.819 E16.10755
G1 X169.764 Y144.298 E16.14489
G1 X170.284 Y144.836 E16.18222
G1 X170.744 Y145.426 E16.21954
G1 X171.138 Y146.061 E16.25682
G1 X171.462 Y146.736 E16.29418
G1 X171.712 Y147.441 E16.3315
G1 X171.886 Y148.168 E16.36879
G1 X171.981 Y148.91 E16.40611
G1 X172 Y149.427 E16.43192
G1 X172 Y151.573 E16.53899
G1 X171.96 Y152.32 E16.57631
G1 X171.841 Y153.058 E16.6136
G1 X171.643 Y153.78 E16.65095
G1 X171.37 Y154.476 E16.68825
G1 X171.023 Y155.139 E16.72559
G1 X170.608 Y155.762 E16.76293
G1 X170.129 Y156.336 E16.80023
G1 X169.592 Y156.857 E16.83756
G1 X169.002 Y157.316 E16.87485
G1 X168.366 Y157.711 E16.9122
G1 X167.692 Y158.035 E16.94951
G1 X166.987 Y158.285 E16.98683
G1 X166.259 Y158.459 E17.02418
G1 X165.517 Y158.554 E17.0615
G1 X165.001 Y158.573 E17.08726
G1 X163.573 Y158.573 E17.1585
G1 X163.573 Y160.001 E17.22974
G1 X163.533 Y160.748 E17.26707
G1 X163.413 Y161.486 E17.30437
G1 X163.216 Y162.208 E17.34171
G1 X162.942 Y162.904 E17.37902
G1 X162.596 Y163.567 E17.41633
G1 X162.181 Y164.189 E17.45364
G1 X161.702 Y164.764 E17.49097
G1 X161.164 Y165.284 E17.5283
G1 X160.574 Y165.744 E17.56563
G1 X159.938 Y166.138 E17.60295
G1 X159.264 Y166.462 E17.64026
G1 X158.559 Y166.712 E17.67758
G1 X157.831 Y166.886 E17.71492
G1 X157.089 Y166.981 E17.75225
G1 X156.573 Y167 E17.77801
G1 X154.427 Y167 E17.88507
G1 X153.68 Y166.96 E17.92239
G1 X152.942 Y166.841 E17.95969
G1 X152.22 Y166.643 E17.99704
G1 X151.524 Y166.37 E18.03434
G1 X150.861 Y166.023 E18.07167
G1 X150.238 Y165.608 E18.10902
G1 X150.002 Y165.411 E18.12435
G1 X149.575 Y165.743 E18.15134
G1 X148.939 Y166.138 E18.18869
G1 X148.265 Y166.462 E18.226
G1 X147.56 Y166.712 E18.26332
G1 X146.832 Y166.886 E18.30066
G1 X146.09 Y166.981 E18.33798
G1 X145.573 Y167 E18.36379
G1 X143.427 Y167 E18.47086
G1 X142.68 Y166.96 E18.50818
G1 X141.942 Y166.841 E18.54547
G1 X141.22 Y166.643 E18.58282
G1 X140.524 Y166.37 E18.62012
G1 X139.861 Y166.023 E18.65746
G1 X139.238 Y165.608 E18.6948
G1 X138.664 Y165.129 E18.7321
G1 X138.143 Y164.592 E18.76943
G1 X137.684 Y164.002 E18.80672
G1 X137.289 Y163.366 E18.84407
G1 X136.965 Y162.692 E18.88138
G1 X136.715 Y161.987 E18.9187
G1 X136.541 Y161.259 E18.95605
G1 X136.446 Y160.517 E18.99337
G1 X136.427 Y160.001 E19.01913
G1 X136.427 Y158.573 E19.09037
G1 X134.999 Y158.573 E19.16161
G1 X134.252 Y158.533 E19.19893
G1 X133.514 Y158.413 E19.23624
G1 X132.792 Y158.216 E19.27357
G1 X132.096 Y157.942 E19.31089
G1 X131.433 Y157.596 E19.3482
G1 X130.811 Y157.181 E19.38551
G1 X130.236 Y156.702 E19.42284
G1 X129.716 Y156.164 E19.46017
G1 X129.256 Y155.574 E19.4975
G1 X128.862 Y154.938 E19.53482
G1 X128.538 Y154.264 E19.57213
G1 X128.288 Y153.559 E19.60945
G1 X128.114 Y152.831 E19.64679
G1 X128.019 Y152.089 E19.68411
G1 X128 Y151.573 E19.70988
G1 X128 Y149.427 E19.81694
G1 X128.04 Y148.68 E19.85426
G1 X128.159 Y147.942 E19.89156
G1 X128.357 Y147.22 E19.92891
G1 X128.63 Y146.524 E19.96621
G1 X128.977 Y145.861 E20.00354
G1 X129.392 Y145.238 E20.04089
G1 X129.871 Y144.664 E20.07818
G1 X130.408 Y144.143 E20.11551
G0 F7500 X130.265 Y144.829
G1 F1500 X130.799 Y144.336 E20.15177
G1 X131.384 Y143.906 E20.18799
G1 X132.013 Y143.542 E20.22425
G1 X132.678 Y143.249 E20.2605
G1 X133.371 Y143.031 E20.29675
G1 X134.083 Y142.891 E20.33295
G1 X135 Y142.827 E20.37881
G1 X142.327 Y142.826 E20.74436
G1 X142.327 Y139.999 E20.8854
G1 X142.367 Y139.274 E20.92162
G1 X142.487 Y138.558 E20.95784
G1 X142.684 Y137.859 E20.99407
G1 X142.957 Y137.186 E21.03031
G1 X143.303 Y136.547 E21.06656
G1 X143.716 Y135.949 E21.10282
G1 X144.193 Y135.401 E21.13906
G1 X144.727 Y134.909 E21.17529
G1 X145.312 Y134.478 E21.21154
G1 X145.94 Y134.114 E21.24775
G1 X146.605 Y133.822 E21.28399
G1 X147.298 Y133.604 E21.32023
G1 X148.011 Y133.464 E21.35648
G1 X148.927 Y133.4 E21.4023
G1 X151.073 Y133.4 E21.50936
G1 X151.798 Y133.44 E21.54558
G1 X152.515 Y133.559 E21.58185
G1 X153.214 Y133.757 E21.61809
G1 X153.887 Y134.03 E21.65432
G1 X154.526 Y134.375 E21.69055
G1 X155.123 Y134.789 E21.7268
G1 X155.671 Y135.265 E21.76301
G1 X156.164 Y135.799 E21.79927
G1 X156.594 Y136.384 E21.83549
G1 X156.958 Y137.013 E21.87175
G1 X157.251 Y137.678 E21.908
G1 X157.469 Y138.371 E21.94425
G1 X157.609 Y139.083 E21.98045
G1 X157.673 Y139.999 E22.02626
G1 X157.673 Y142.826 E22.1673
G1 X165 Y142.827 E22.53285
G1 X165.726 Y142.867 E22.56912
G1 X166.442 Y142.986 E22.60533
G1 X167.141 Y143.184 E22.64158
G1 X167.814 Y143.457 E22.67781
G1 X168.453 Y143.802 E22.71404
G1 X169.05 Y144.216 E22.75029
G1 X169.598 Y144.693 E22.78653
G1 X170.091 Y145.227 E22.82279
G1 X170.522 Y145.812 E22.85904
G1 X170.885 Y146.44 E22.89523
G1 X171.178 Y147.105 E22.93149
G1 X171.396 Y147.798 E22.96773
G1 X171.536 Y148.511 E23.00398
G1 X171.6 Y149.427 E23.04979
G1 X171.6 Y151.573 E23.15686
