;FLAVOR:Marlin
;TIME:392
;Filament used: 0.11413m
;Layer height: 0.1
;MINX:138.209
;MINY:138.283
;MINZ:0.3
;MAXX:161.791
;MAXY:161.868
;MAXZ:5
;Generated with Cura_SteamEngine master
M140 S60
M105
M190 S60
M104 S200
M105
M109 S200
M82 ;absolute extrusion mode

G21 ;metric values
G90 ;absolute positioning
M82 ;set extruder to absolute mode
M107 ;start with the fan off
G28 ;move X/Y/Z to min endstops
G29 ;auto level
G1 Z15.0 F9000 ;move the platform down 15mm
G92 E0 ;zero the extruded length
G1 F200 E3 ;extrude 3mm of feed stock
G92 E0 ;zero the extruded length again
G1 F9000
;Put printing message on LCD screen
M117 Printing...
G92 E0
G92 E0
G1 F1500 E-6.5
;LAYER_COUNT:48
;LAYER:0
M107
M204 S1000
G0 F7500 X141.92 Y141.479 Z0.3
;TYPE:SKIRT
G1 F1500 E0
G1 X142.21 Y141.215 E0.01957
G1 X142.825 Y140.71 E0.05927
G1 X143.143 Y140.475 E0.07899
G1 X143.751 Y140.068 E0.1155
G1 X144.086 Y139.866 E0.13501
G1 X144.786 Y139.492 E0.17461
G1 X145.14 Y139.325 E0.19414
G1 X145.842 Y139.034 E0.23205
G1 X146.214 Y138.901 E0.25176
G1 X146.944 Y138.68 E0.28981
G1 X147.323 Y138.585 E0.3093
G1 X148.091 Y138.433 E0.34836
G1 X148.481 Y138.376 E0.36803
G1 X149.211 Y138.304 E0.40462
G1 X149.602 Y138.284 E0.42416
G1 X150.379 Y138.283 E0.46292
G1 X150.77 Y138.302 E0.48245
G1 X151.538 Y138.378 E0.52095
G1 X151.928 Y138.436 E0.54062
G1 X152.677 Y138.585 E0.57872
G1 X153.056 Y138.68 E0.59822
G1 X153.786 Y138.901 E0.63627
G1 X154.158 Y139.034 E0.65598
G1 X154.86 Y139.325 E0.69389
G1 X155.214 Y139.492 E0.71342
G1 X155.899 Y139.858 E0.75217
G1 X156.234 Y140.059 E0.77166
G1 X156.866 Y140.481 E0.80957
G1 X157.183 Y140.716 E0.82926
G1 X157.788 Y141.213 E0.86832
G1 X158.077 Y141.476 E0.88782
G1 X158.595 Y141.994 E0.92436
G1 X158.859 Y142.284 E0.94393
G1 X159.35 Y142.88 E0.98245
G1 X159.585 Y143.196 E1.0021
G1 X160.021 Y143.85 E1.04131
G1 X160.223 Y144.188 E1.06096
G1 X160.575 Y144.845 E1.09815
G1 X160.743 Y145.199 E1.11769
G1 X161.047 Y145.935 E1.15742
G1 X161.179 Y146.307 E1.17712
G1 X161.393 Y147.014 E1.21397
G1 X161.488 Y147.392 E1.23341
G1 X161.638 Y148.143 E1.27162
G1 X161.696 Y148.532 E1.29124
G1 X161.772 Y149.304 E1.32994
G1 X161.791 Y149.696 E1.34952
G1 X161.791 Y150.452 E1.38724
G1 X161.772 Y150.844 E1.40682
G1 X161.696 Y151.613 E1.44537
G1 X161.638 Y152.003 E1.46504
G1 X161.49 Y152.748 E1.50294
G1 X161.395 Y153.128 E1.52248
G1 X161.172 Y153.863 E1.5608
G1 X161.04 Y154.232 E1.58035
G1 X160.75 Y154.934 E1.61825
G1 X160.582 Y155.29 E1.63789
G1 X160.222 Y155.965 E1.67605
G1 X160.021 Y156.301 E1.69559
G1 X159.586 Y156.952 E1.73465
G1 X159.351 Y157.268 E1.75429
G1 X158.87 Y157.853 E1.79208
G1 X158.607 Y158.143 E1.81161
G1 X158.069 Y158.681 E1.84957
G1 X157.779 Y158.944 E1.8691
G1 X157.187 Y159.43 E1.90731
G1 X156.869 Y159.666 E1.92707
G1 X156.226 Y160.095 E1.96563
G1 X155.87 Y160.308 E1.98633
G1 X155.161 Y160.684 E2.02637
G1 X154.805 Y160.85 E2.04597
G1 X154.058 Y161.153 E2.08618
G1 X153.685 Y161.282 E2.10587
G1 X152.995 Y161.485 E2.14176
G1 X152.616 Y161.578 E2.16123
G1 X151.866 Y161.724 E2.19935
G1 X151.476 Y161.78 E2.219
G1 X150.686 Y161.852 E2.25858
G1 X150.295 Y161.868 E2.2781
G1 X149.558 Y161.864 E2.31487
G1 X149.167 Y161.843 E2.33441
G1 X148.38 Y161.76 E2.37389
G1 X147.99 Y161.699 E2.39358
G1 X147.256 Y161.548 E2.43097
G1 X146.878 Y161.451 E2.45044
G1 X146.15 Y161.226 E2.48846
G1 X145.779 Y161.091 E2.50815
G1 X145.086 Y160.8 E2.54565
G1 X144.732 Y160.631 E2.56522
G1 X144.045 Y160.26 E2.60417
G1 X143.732 Y160.07 E2.62244
G1 X143.131 Y159.666 E2.65857
G1 X142.813 Y159.43 E2.67833
G1 X142.221 Y158.944 E2.71654
G1 X141.931 Y158.681 E2.73607
G1 X141.402 Y158.153 E2.77336
G1 X141.139 Y157.864 E2.79285
G1 X140.642 Y157.259 E2.83192
G1 X140.407 Y156.942 E2.8516
G1 X139.985 Y156.31 E2.88952
G1 X139.784 Y155.975 E2.90901
G1 X139.422 Y155.299 E2.94727
G1 X139.253 Y154.942 E2.96697
G1 X138.952 Y154.215 E3.00623
G1 X138.821 Y153.846 E3.02576
G1 X138.605 Y153.128 E3.06317
G1 X138.51 Y152.748 E3.08271
G1 X138.362 Y152.006 E3.12046
G1 X138.304 Y151.617 E3.14008
G1 X138.228 Y150.846 E3.17873
G1 X138.209 Y150.455 E3.19826
G1 X138.209 Y149.698 E3.23603
G1 X138.228 Y149.306 E3.25561
G1 X138.303 Y148.539 E3.29406
G1 X138.361 Y148.148 E3.31378
G1 X138.512 Y147.392 E3.35224
G1 X138.607 Y147.014 E3.37168
G1 X138.819 Y146.312 E3.40827
G1 X138.95 Y145.942 E3.42785
G1 X139.257 Y145.2 E3.46791
G1 X139.426 Y144.844 E3.48757
G1 X139.778 Y144.185 E3.52485
G1 X139.979 Y143.849 E3.54438
G1 X140.407 Y143.208 E3.58284
G1 X140.642 Y142.891 E3.60252
G1 X141.139 Y142.286 E3.64158
G1 X141.402 Y141.997 E3.66108
G1 X141.92 Y141.479 E3.69763
G0 F7500 X142.189 Y141.775
G1 F1500 X142.479 Y141.511 E3.71719
G1 X143.063 Y141.032 E3.75488
G1 X143.381 Y140.797 E3.7746
G1 X143.958 Y140.411 E3.80924
G1 X144.293 Y140.209 E3.82875
G1 X144.957 Y139.853 E3.86634
G1 X145.311 Y139.686 E3.88587
G1 X145.977 Y139.411 E3.92182
G1 X146.349 Y139.278 E3.94153
G1 X147.041 Y139.068 E3.97761
G1 X147.42 Y138.973 E3.9971
G1 X148.149 Y138.829 E4.03417
G1 X148.539 Y138.772 E4.05384
G1 X149.231 Y138.704 E4.08853
G1 X149.622 Y138.684 E4.10806
G1 X150.359 Y138.683 E4.14483
G1 X150.75 Y138.702 E4.16436
G1 X151.48 Y138.774 E4.20095
G1 X151.87 Y138.832 E4.22062
G1 X152.58 Y138.973 E4.25674
G1 X152.959 Y139.068 E4.27623
G1 X153.651 Y139.278 E4.31231
G1 X154.023 Y139.411 E4.33202
G1 X154.689 Y139.686 E4.36797
G1 X155.043 Y139.853 E4.3875
G1 X155.693 Y140.201 E4.42428
G1 X156.028 Y140.402 E4.44377
G1 X156.628 Y140.802 E4.47975
G1 X156.945 Y141.037 E4.49943
G1 X157.519 Y141.509 E4.53651
G1 X157.808 Y141.772 E4.556
G1 X158.299 Y142.263 E4.59065
G1 X158.563 Y142.553 E4.61021
G1 X159.029 Y143.119 E4.64679
G1 X159.264 Y143.435 E4.66644
G1 X159.678 Y144.055 E4.70363
G1 X159.88 Y144.393 E4.72328
G1 X160.213 Y145.016 E4.75852
G1 X160.381 Y145.37 E4.77807
G1 X160.67 Y146.068 E4.81576
G1 X160.802 Y146.44 E4.83545
G1 X161.005 Y147.111 E4.87043
G1 X161.1 Y147.489 E4.88987
G1 X161.242 Y148.202 E4.92614
G1 X161.3 Y148.591 E4.94576
G1 X161.372 Y149.324 E4.98251
G1 X161.391 Y149.716 E5.00209
G1 X161.391 Y150.432 E5.03781
G1 X161.372 Y150.824 E5.05739
G1 X161.3 Y151.555 E5.09404
G1 X161.242 Y151.945 E5.11371
G1 X161.102 Y152.651 E5.14961
G1 X161.007 Y153.031 E5.16916
G1 X160.796 Y153.728 E5.20549
G1 X160.664 Y154.097 E5.22504
G1 X160.388 Y154.763 E5.26101
G1 X160.22 Y155.119 E5.28065
G1 X159.878 Y155.76 E5.31689
G1 X159.677 Y156.096 E5.33643
G1 X159.265 Y156.713 E5.37344
G1 X159.03 Y157.029 E5.39309
G1 X158.574 Y157.584 E5.42892
G1 X158.311 Y157.874 E5.44846
G1 X157.8 Y158.385 E5.48451
G1 X157.51 Y158.648 E5.50404
G1 X156.949 Y159.108 E5.54024
G1 X156.631 Y159.344 E5.55999
G1 X156.02 Y159.752 E5.59665
G1 X155.664 Y159.965 E5.61734
G1 X154.992 Y160.322 E5.65531
G1 X154.636 Y160.488 E5.67491
G1 X153.928 Y160.775 E5.71302
G1 X153.555 Y160.904 E5.73271
G1 X152.9 Y161.097 E5.76678
G1 X152.521 Y161.19 E5.78625
G1 X151.809 Y161.328 E5.82243
G1 X151.419 Y161.384 E5.84209
G1 X150.67 Y161.453 E5.87961
G1 X150.279 Y161.469 E5.89914
G1 X149.579 Y161.464 E5.93406
G1 X149.188 Y161.443 E5.95359
G1 X148.441 Y161.365 E5.99106
G1 X148.051 Y161.304 E6.01076
G1 X147.356 Y161.161 E6.04616
G1 X146.978 Y161.064 E6.06563
G1 X146.287 Y160.85 E6.10172
G1 X145.916 Y160.715 E6.12141
G1 X145.258 Y160.439 E6.15701
G1 X144.904 Y160.27 E6.17658
G1 X144.252 Y159.918 E6.21355
G1 X143.939 Y159.728 E6.23182
G1 X143.369 Y159.344 E6.26611
G1 X143.051 Y159.108 E6.28586
G1 X142.49 Y158.648 E6.32206
G1 X142.2 Y158.385 E6.34159
G1 X141.698 Y157.884 E6.37697
G1 X141.435 Y157.595 E6.39647
G1 X140.963 Y157.021 E6.43354
G1 X140.728 Y156.704 E6.45323
G1 X140.328 Y156.104 E6.48921
G1 X140.127 Y155.769 E6.5087
G1 X139.784 Y155.128 E6.54497
G1 X139.615 Y154.771 E6.56467
G1 X139.329 Y154.081 E6.60194
G1 X139.198 Y153.712 E6.62147
G1 X138.993 Y153.031 E6.65695
G1 X138.898 Y152.651 E6.6765
G1 X138.758 Y151.947 E6.71231
G1 X138.7 Y151.558 E6.73193
G1 X138.628 Y150.826 E6.76862
G1 X138.609 Y150.435 E6.78815
G1 X138.609 Y149.718 E6.82392
G1 X138.628 Y149.326 E6.8435
G1 X138.699 Y148.598 E6.88
G1 X138.757 Y148.207 E6.89972
G1 X138.9 Y147.489 E6.93624
G1 X138.995 Y147.111 E6.95569
G1 X139.196 Y146.445 E6.99039
G1 X139.327 Y146.075 E7.00998
G1 X139.618 Y145.372 E7.04794
G1 X139.787 Y145.016 E7.0676
G1 X140.122 Y144.39 E7.10302
G1 X140.323 Y144.054 E7.12255
G1 X140.728 Y143.446 E7.159
G1 X140.963 Y143.129 E7.17869
G1 X141.435 Y142.555 E7.21576
G1 X141.698 Y142.266 E7.23526
G1 X142.189 Y141.775 E7.2699
G0 F7500 X142.459 Y142.071
G1 F1500 X142.749 Y141.807 E7.28946
G1 X143.301 Y141.353 E7.32512
G1 X143.619 Y141.118 E7.34485
G1 X144.164 Y140.753 E7.37757
G1 X144.499 Y140.551 E7.39709
G1 X145.127 Y140.215 E7.43262
G1 X145.481 Y140.048 E7.45215
G1 X146.111 Y139.788 E7.48615
G1 X146.483 Y139.655 E7.50586
G1 X147.138 Y139.456 E7.54002
G1 X147.517 Y139.361 E7.55951
G1 X148.207 Y139.225 E7.5946
G1 X148.597 Y139.168 E7.61426
G1 X149.251 Y139.103 E7.64705
G1 X149.642 Y139.083 E7.66658
G1 X150.34 Y139.082 E7.7014
G1 X150.731 Y139.101 E7.72093
G1 X151.421 Y139.169 E7.75553
G1 X151.811 Y139.227 E7.7752
G1 X152.483 Y139.361 E7.80938
G1 X152.862 Y139.456 E7.82888
G1 X153.517 Y139.655 E7.86303
G1 X153.889 Y139.788 E7.88274
G1 X154.519 Y140.048 E7.91674
G1 X154.873 Y140.215 E7.93627
G1 X155.487 Y140.544 E7.97102
G1 X155.822 Y140.745 E7.99051
G1 X156.39 Y141.124 E8.02458
G1 X156.707 Y141.359 E8.04427
G1 X157.249 Y141.805 E8.07929
G1 X157.538 Y142.068 E8.09878
G1 X158.003 Y142.533 E8.13159
G1 X158.267 Y142.823 E8.15115
G1 X158.708 Y143.358 E8.18574
G1 X158.943 Y143.674 E8.20539
G1 X159.335 Y144.26 E8.24056
G1 X159.537 Y144.598 E8.26021
G1 X159.852 Y145.188 E8.29358
G1 X160.02 Y145.542 E8.31313
G1 X160.293 Y146.202 E8.34876
G1 X160.425 Y146.574 E8.36845
G1 X160.617 Y147.209 E8.40155
G1 X160.712 Y147.587 E8.42099
G1 X160.846 Y148.261 E8.45528
G1 X160.904 Y148.65 E8.4749
G1 X160.973 Y149.343 E8.50964
G1 X160.992 Y149.735 E8.52922
G1 X160.992 Y150.413 E8.56305
G1 X160.973 Y150.805 E8.58263
G1 X160.905 Y151.496 E8.61727
G1 X160.847 Y151.886 E8.63694
G1 X160.714 Y152.554 E8.67092
G1 X160.619 Y152.934 E8.69046
G1 X160.419 Y153.594 E8.72487
G1 X160.287 Y153.963 E8.74442
G1 X160.027 Y154.592 E8.77838
G1 X159.859 Y154.948 E8.79802
G1 X159.535 Y155.555 E8.83235
G1 X159.334 Y155.891 E8.85188
G1 X158.944 Y156.474 E8.88687
G1 X158.709 Y156.79 E8.90652
G1 X158.277 Y157.315 E8.94044
G1 X158.014 Y157.605 E8.95997
G1 X157.531 Y158.088 E8.99405
G1 X157.241 Y158.351 E9.01358
G1 X156.711 Y158.787 E9.04782
G1 X156.393 Y159.023 E9.06758
G1 X155.815 Y159.409 E9.10225
G1 X155.459 Y159.622 E9.12295
G1 X154.823 Y159.959 E9.15886
G1 X154.467 Y160.125 E9.17846
G1 X153.797 Y160.397 E9.21453
G1 X153.424 Y160.526 E9.23422
G1 X152.804 Y160.708 E9.26646
G1 X152.425 Y160.801 E9.28593
G1 X151.752 Y160.932 E9.32014
G1 X151.362 Y160.988 E9.33979
G1 X150.653 Y161.053 E9.37531
G1 X150.262 Y161.069 E9.39484
G1 X149.601 Y161.065 E9.42781
G1 X149.21 Y161.044 E9.44735
G1 X148.503 Y160.97 E9.48281
G1 X148.113 Y160.909 E9.50251
G1 X147.455 Y160.773 E9.53603
G1 X147.077 Y160.676 E9.5555
G1 X146.423 Y160.474 E9.58965
G1 X146.052 Y160.339 E9.60935
G1 X145.43 Y160.078 E9.643
G1 X145.076 Y159.909 E9.66257
G1 X144.46 Y159.576 E9.6975
G1 X144.147 Y159.386 E9.71577
G1 X143.607 Y159.023 E9.74823
G1 X143.289 Y158.787 E9.76799
G1 X142.759 Y158.351 E9.80223
G1 X142.469 Y158.088 E9.82176
G1 X141.994 Y157.614 E9.85524
G1 X141.731 Y157.325 E9.87474
G1 X141.285 Y156.783 E9.90975
G1 X141.05 Y156.466 E9.92944
G1 X140.671 Y155.898 E9.96351
G1 X140.47 Y155.563 E9.983
G1 X140.145 Y154.957 E10.01731
G1 X139.976 Y154.6 E10.03701
G1 X139.706 Y153.947 E10.07226
G1 X139.575 Y153.578 E10.0918
G1 X139.381 Y152.934 E10.12535
G1 X139.286 Y152.554 E10.1449
G1 X139.154 Y151.888 E10.17877
G1 X139.096 Y151.499 E10.19839
G1 X139.027 Y150.807 E10.23309
G1 X139.008 Y150.416 E10.25262
G1 X139.008 Y149.737 E10.28649
G1 X139.027 Y149.345 E10.30607
G1 X139.095 Y148.657 E10.34056
G1 X139.153 Y148.266 E10.36028
G1 X139.288 Y147.587 E10.39482
G1 X139.383 Y147.209 E10.41427
G1 X139.573 Y146.579 E10.4471
G1 X139.704 Y146.209 E10.46668
G1 X139.979 Y145.543 E10.50263
G1 X140.148 Y145.187 E10.52229
G1 X140.465 Y144.595 E10.55579
G1 X140.666 Y144.259 E10.57532
G1 X141.05 Y143.684 E10.60982
G1 X141.285 Y143.367 E10.62951
G1 X141.731 Y142.825 E10.66453
G1 X141.994 Y142.536 E10.68402
G1 X142.459 Y142.071 E10.71683
G0 F7500 X142.728 Y142.366
G1 F1500 X143.018 Y142.102 E10.73639
G1 X143.538 Y141.675 E10.76996
G1 X143.856 Y141.44 E10.78969
G1 X144.371 Y141.096 E10.82059
G1 X144.706 Y140.894 E10.8401
G1 X145.298 Y140.577 E10.87361
G1 X145.652 Y140.41 E10.89314
G1 X146.246 Y140.164 E10.92521
G1 X146.618 Y140.031 E10.94492
G1 X147.235 Y139.844 E10.97709
G1 X147.614 Y139.749 E10.99658
G1 X148.265 Y139.62 E11.02969
G1 X148.655 Y139.563 E11.04935
G1 X149.272 Y139.503 E11.08028
G1 X149.663 Y139.483 E11.09981
G1 X150.32 Y139.482 E11.13259
G1 X150.711 Y139.501 E11.15212
G1 X151.362 Y139.565 E11.18476
G1 X151.752 Y139.623 E11.20443
G1 X152.386 Y139.749 E11.23668
G1 X152.765 Y139.844 E11.25617
G1 X153.382 Y140.031 E11.28833
G1 X153.754 Y140.164 E11.30804
G1 X154.348 Y140.41 E11.34012
G1 X154.702 Y140.577 E11.35965
G1 X155.282 Y140.887 E11.39246
G1 X155.617 Y141.088 E11.41195
G1 X156.152 Y141.445 E11.44404
G1 X156.469 Y141.68 E11.46372
G1 X156.98 Y142.101 E11.49676
G1 X157.269 Y142.364 E11.51625
G1 X157.708 Y142.802 E11.54719
G1 X157.972 Y143.092 E11.56675
G1 X158.387 Y143.596 E11.59933
G1 X158.622 Y143.912 E11.61897
G1 X158.991 Y144.465 E11.65214
G1 X159.193 Y144.803 E11.67178
G1 X159.491 Y145.359 E11.70326
G1 X159.659 Y145.713 E11.72281
G1 X159.916 Y146.336 E11.75643
G1 X160.048 Y146.708 E11.77612
G1 X160.229 Y147.306 E11.80729
G1 X160.324 Y147.684 E11.82674
G1 X160.451 Y148.32 E11.85909
G1 X160.509 Y148.709 E11.87872
G1 X160.573 Y149.362 E11.91145
G1 X160.592 Y149.754 E11.93103
G1 X160.592 Y150.394 E11.96296
G1 X160.573 Y150.786 E11.98254
G1 X160.509 Y151.437 E12.01517
G1 X160.451 Y151.827 E12.03485
G1 X160.326 Y152.457 E12.06689
G1 X160.231 Y152.837 E12.08643
G1 X160.042 Y153.459 E12.11886
G1 X159.91 Y153.828 E12.13842
G1 X159.665 Y154.422 E12.17047
G1 X159.497 Y154.778 E12.19011
G1 X159.192 Y155.349 E12.22241
G1 X158.991 Y155.685 E12.24194
G1 X158.623 Y156.236 E12.275
G1 X158.388 Y156.552 E12.29465
G1 X157.981 Y157.047 E12.32662
G1 X157.718 Y157.337 E12.34615
G1 X157.263 Y157.792 E12.37825
G1 X156.973 Y158.055 E12.39778
G1 X156.472 Y158.466 E12.43011
G1 X156.154 Y158.702 E12.44987
G1 X155.61 Y159.066 E12.48253
G1 X155.254 Y159.279 E12.50322
G1 X154.654 Y159.597 E12.5371
G1 X154.298 Y159.763 E12.5567
G1 X153.666 Y160.019 E12.59072
G1 X153.293 Y160.148 E12.61041
G1 X152.709 Y160.32 E12.64078
G1 X152.33 Y160.413 E12.66025
G1 X151.695 Y160.536 E12.69252
G1 X151.305 Y160.592 E12.71218
G1 X150.637 Y160.653 E12.74564
G1 X150.246 Y160.669 E12.76516
G1 X149.622 Y160.666 E12.7963
G1 X149.231 Y160.645 E12.81583
G1 X148.565 Y160.575 E12.84924
G1 X148.175 Y160.514 E12.86894
G1 X147.555 Y160.386 E12.90052
G1 X147.177 Y160.289 E12.91999
G1 X146.56 Y160.098 E12.95221
G1 X146.189 Y159.963 E12.97191
G1 X145.603 Y159.717 E13.00362
G1 X145.249 Y159.548 E13.02319
G1 X144.667 Y159.234 E13.05618
G1 X144.354 Y159.044 E13.07445
G1 X143.846 Y158.702 E13.105
G1 X143.528 Y158.466 E13.12476
G1 X143.027 Y158.055 E13.15709
G1 X142.737 Y157.792 E13.17662
G1 X142.29 Y157.345 E13.20816
G1 X142.027 Y157.056 E13.22765
G1 X141.606 Y156.545 E13.26068
G1 X141.371 Y156.228 E13.28037
G1 X141.014 Y155.693 E13.31246
G1 X140.813 Y155.358 E13.33195
G1 X140.507 Y154.786 E13.36431
G1 X140.338 Y154.429 E13.38402
G1 X140.083 Y153.813 E13.41728
G1 X139.952 Y153.444 E13.43681
G1 X139.769 Y152.837 E13.46844
G1 X139.674 Y152.457 E13.48799
G1 X139.549 Y151.829 E13.51993
G1 X139.491 Y151.44 E13.53955
G1 X139.427 Y150.787 E13.57229
G1 X139.408 Y150.396 E13.59182
G1 X139.408 Y149.756 E13.62375
G1 X139.427 Y149.364 E13.64333
G1 X139.49 Y148.716 E13.67581
G1 X139.548 Y148.325 E13.69553
G1 X139.676 Y147.684 E13.72814
G1 X139.771 Y147.306 E13.74759
G1 X139.95 Y146.712 E13.77854
G1 X140.081 Y146.342 E13.79812
G1 X140.341 Y145.715 E13.83198
