;FLAVOR:Marlin
;TIME:2042
;Filament used: 0.601192m
;Layer height: 0.1
;MINX:127.2
;MINY:138.376
;MINZ:0.3
;MAXX:172.8
;MAXY:164.55
;MAXZ:8
;Generated with Cura_SteamEngine master
M140 S60
M105
M190 S60
M104 S200
M105
M109 S200
M82 ;absolute extrusion mode

G21 ;metric values
G90 ;absolute positioning
M82 ;set extruder to absolute mode
M107 ;start with the fan off
G28 ;move X/Y/Z to min endstops
G29 ;auto level
G1 Z15.0 F9000 ;move the platform down 15mm
G92 E0 ;zero the extruded length
G1 F200 E3 ;extrude 3mm of feed stock
G92 E0 ;zero the extruded length again
G1 F9000
;Put printing message on LCD screen
M117 Printing...
G92 E0
G92 E0
G1 F1500 E-6.5
;LAYER_COUNT:78
;LAYER:0
M107
M204 S1000
G0 F7500 X129.623 Y140.526 Z0.3
;TYPE:SKIRT
G1 F1500 E0
G1 X130.222 Y140.011 E0.03941
G1 X130.87 Y139.56 E0.0788
G1 X131.561 Y139.176 E0.11824
G1 X132.286 Y138.864 E0.15762
G1 X133.039 Y138.627 E0.197
G1 X133.813 Y138.468 E0.23642
G1 X134.598 Y138.387 E0.27579
G1 X135 Y138.377 E0.29586
G1 X165 Y138.376 E1.79256
G1 X165.788 Y138.416 E1.83193
G1 X166.569 Y138.535 E1.87134
G1 X167.334 Y138.733 E1.91076
G1 X168.074 Y139.007 E1.95013
G1 X168.783 Y139.355 E1.98953
G1 X169.453 Y139.772 E2.02891
G1 X170.078 Y140.255 E2.06831
G1 X170.651 Y140.799 E2.10773
G1 X171.165 Y141.398 E2.14711
G1 X171.617 Y142.046 E2.18653
G1 X172.001 Y142.736 E2.22592
G1 X172.313 Y143.462 E2.26535
G1 X172.549 Y144.215 E2.30472
G1 X172.709 Y144.988 E2.3441
G1 X172.79 Y145.774 E2.38352
G1 X172.8 Y146.176 E2.40358
G1 X172.8 Y148.323 E2.5107
G1 X172.76 Y149.112 E2.55011
G1 X172.641 Y149.892 E2.58948
G1 X172.443 Y150.657 E2.6289
G1 X172.169 Y151.397 E2.66827
G1 X171.821 Y152.106 E2.70767
G1 X171.403 Y152.777 E2.74711
G1 X170.92 Y153.401 E2.78648
G1 X170.377 Y153.974 E2.82586
G1 X169.778 Y154.489 E2.86527
G1 X169.13 Y154.94 E2.90466
G1 X168.439 Y155.324 E2.9441
G1 X167.714 Y155.636 E2.98348
G1 X166.961 Y155.873 E3.02286
G1 X166.187 Y156.032 E3.06228
G1 X165.402 Y156.113 E3.10166
G1 X165.001 Y156.123 E3.12167
G1 X164.373 Y156.123 E3.153
G1 X164.373 Y156.751 E3.18433
G1 X164.333 Y157.54 E3.22374
G1 X164.213 Y158.32 E3.26312
G1 X164.015 Y159.085 E3.30254
G1 X163.741 Y159.825 E3.34191
G1 X163.394 Y160.534 E3.38129
G1 X162.976 Y161.204 E3.42069
G1 X162.493 Y161.829 E3.4601
G1 X161.949 Y162.402 E3.49951
G1 X161.35 Y162.916 E3.53889
G1 X160.702 Y163.368 E3.57831
G1 X160.012 Y163.751 E3.61768
G1 X159.286 Y164.063 E3.6571
G1 X158.533 Y164.3 E3.69649
G1 X157.759 Y164.459 E3.73591
G1 X156.974 Y164.54 E3.77528
G1 X156.573 Y164.55 E3.79529
G1 X154.427 Y164.55 E3.90236
G1 X153.638 Y164.51 E3.94177
G1 X152.858 Y164.391 E3.98114
G1 X152.093 Y164.193 E4.02056
G1 X151.353 Y163.919 E4.05993
G1 X150.644 Y163.571 E4.09933
G1 X149.993 Y163.165 E4.13761
G1 X149.703 Y163.367 E4.15524
G1 X149.012 Y163.751 E4.19468
G1 X148.287 Y164.063 E4.23406
G1 X147.534 Y164.3 E4.27344
G1 X146.76 Y164.459 E4.31286
G1 X145.975 Y164.54 E4.35224
G1 X145.573 Y164.55 E4.3723
G1 X143.427 Y164.55 E4.47936
G1 X142.638 Y164.51 E4.51878
G1 X141.858 Y164.391 E4.55814
G1 X141.093 Y164.193 E4.59756
G1 X140.353 Y163.919 E4.63693
G1 X139.644 Y163.571 E4.67634
G1 X138.973 Y163.153 E4.71578
G1 X138.349 Y162.67 E4.75514
G1 X137.776 Y162.127 E4.79453
G1 X137.261 Y161.528 E4.83394
G1 X136.81 Y160.88 E4.87333
G1 X136.426 Y160.189 E4.91277
G1 X136.114 Y159.464 E4.95215
G1 X135.877 Y158.711 E4.99153
G1 X135.718 Y157.937 E5.03095
G1 X135.637 Y157.152 E5.07032
G1 X135.627 Y156.751 E5.09033
G1 X135.627 Y156.123 E5.12167
G1 X134.999 Y156.123 E5.153
G1 X134.21 Y156.083 E5.19241
G1 X133.43 Y155.963 E5.23178
G1 X132.665 Y155.765 E5.27121
G1 X131.925 Y155.491 E5.31057
G1 X131.216 Y155.144 E5.34996
G1 X130.546 Y154.726 E5.38935
G1 X129.921 Y154.243 E5.42876
G1 X129.348 Y153.699 E5.46818
G1 X128.834 Y153.1 E5.50756
G1 X128.382 Y152.452 E5.54698
G1 X127.999 Y151.762 E5.58635
G1 X127.687 Y151.036 E5.62577
G1 X127.45 Y150.283 E5.66515
G1 X127.291 Y149.509 E5.70458
G1 X127.21 Y148.724 E5.74395
G1 X127.2 Y148.323 E5.76396
G1 X127.2 Y146.177 E5.87102
G1 X127.24 Y145.388 E5.91044
G1 X127.359 Y144.608 E5.9498
G1 X127.557 Y143.843 E5.98923
G1 X127.831 Y143.103 E6.02859
G1 X128.179 Y142.394 E6.068
G1 X128.597 Y141.723 E6.10744
G1 X129.08 Y141.099 E6.14681
G1 X129.623 Y140.526 E6.18619
G0 F7500 X130.016 Y140.707
G1 F1500 X130.611 Y140.219 E6.22458
G1 X131.253 Y139.796 E6.26294
G1 X131.936 Y139.441 E6.30134
G1 X132.651 Y139.16 E6.33967
G1 X133.393 Y138.954 E6.37809
G1 X134.151 Y138.826 E6.41644
G1 X135 Y138.777 E6.45887
G1 X165 Y138.776 E7.95557
G1 X165.768 Y138.816 E7.99394
G1 X166.528 Y138.935 E8.03232
G1 X167.271 Y139.133 E8.07068
G1 X167.99 Y139.407 E8.10907
G1 X168.676 Y139.754 E8.14742
G1 X169.323 Y140.17 E8.1858
G1 X169.923 Y140.651 E8.22416
G1 X170.47 Y141.192 E8.26255
G1 X170.958 Y141.787 E8.30094
G1 X171.381 Y142.429 E8.3393
G1 X171.736 Y143.112 E8.3777
G1 X172.017 Y143.827 E8.41603
G1 X172.223 Y144.568 E8.4544
G1 X172.351 Y145.327 E8.4928
G1 X172.4 Y146.176 E8.53523
G1 X172.4 Y148.323 E8.64234
G1 X172.36 Y149.091 E8.68071
G1 X172.241 Y149.851 E8.71909
G1 X172.043 Y150.594 E8.75745
G1 X171.769 Y151.313 E8.79584
G1 X171.422 Y151.999 E8.83419
G1 X171.006 Y152.646 E8.87256
G1 X170.525 Y153.246 E8.91093
G1 X169.984 Y153.793 E8.94931
G1 X169.389 Y154.281 E8.9877
G1 X168.747 Y154.704 E9.02606
G1 X168.064 Y155.059 E9.06446
G1 X167.349 Y155.34 E9.10279
G1 X166.607 Y155.546 E9.14121
G1 X165.849 Y155.674 E9.17956
G1 X165.001 Y155.723 E9.22194
G1 X163.973 Y155.723 E9.27323
G1 X163.973 Y156.751 E9.32451
G1 X163.933 Y157.519 E9.36288
G1 X163.813 Y158.279 E9.40127
G1 X163.616 Y159.022 E9.43962
G1 X163.342 Y159.741 E9.47801
G1 X162.995 Y160.427 E9.51636
G1 X162.578 Y161.074 E9.55476
G1 X162.097 Y161.674 E9.59313
G1 X161.556 Y162.221 E9.63151
G1 X160.961 Y162.708 E9.66987
G1 X160.319 Y163.132 E9.70825
G1 X159.636 Y163.486 E9.74663
G1 X158.921 Y163.768 E9.78498
G1 X158.18 Y163.973 E9.82334
G1 X157.421 Y164.101 E9.86174
G1 X156.573 Y164.15 E9.90412
G1 X154.427 Y164.15 E10.01118
G1 X153.659 Y164.11 E10.04955
G1 X152.899 Y163.991 E10.08793
G1 X152.156 Y163.793 E10.12629
G1 X151.437 Y163.519 E10.16468
G1 X150.751 Y163.172 E10.20303
G1 X150.104 Y162.756 E10.24141
G1 X150.003 Y162.675 E10.24787
G1 X149.962 Y162.708 E10.25049
G1 X149.32 Y163.131 E10.28885
G1 X148.637 Y163.486 E10.32725
G1 X147.922 Y163.767 E10.36558
G1 X147.18 Y163.973 E10.404
G1 X146.422 Y164.101 E10.44235
G1 X145.573 Y164.15 E10.48478
G1 X143.427 Y164.15 E10.59184
G1 X142.659 Y164.11 E10.63021
G1 X141.899 Y163.991 E10.66859
G1 X141.156 Y163.793 E10.70695
G1 X140.437 Y163.519 E10.74534
G1 X139.751 Y163.172 E10.78369
G1 X139.104 Y162.756 E10.82207
G1 X138.504 Y162.275 E10.86043
G1 X137.957 Y161.734 E10.89881
G1 X137.469 Y161.139 E10.93721
G1 X137.046 Y160.497 E10.97556
G1 X136.691 Y159.814 E11.01397
G1 X136.41 Y159.099 E11.05229
G1 X136.204 Y158.357 E11.09071
G1 X136.076 Y157.599 E11.12906
G1 X136.027 Y156.751 E11.17144
G1 X136.027 Y155.723 E11.22273
G1 X134.999 Y155.723 E11.27402
G1 X134.231 Y155.683 E11.31238
G1 X133.471 Y155.563 E11.35077
G1 X132.728 Y155.366 E11.38912
G1 X132.009 Y155.092 E11.42751
G1 X131.323 Y154.745 E11.46586
G1 X130.676 Y154.328 E11.50426
G1 X130.076 Y153.847 E11.54263
G1 X129.529 Y153.306 E11.58101
G1 X129.042 Y152.711 E11.61937
G1 X128.618 Y152.069 E11.65776
G1 X128.264 Y151.386 E11.69614
G1 X127.982 Y150.671 E11.73448
G1 X127.777 Y149.93 E11.77284
G1 X127.649 Y149.171 E11.81124
G1 X127.6 Y148.323 E11.85362
G1 X127.6 Y146.177 E11.96068
G1 X127.64 Y145.409 E11.99905
G1 X127.759 Y144.649 E12.03743
G1 X127.957 Y143.906 E12.07579
G1 X128.231 Y143.187 E12.11418
G1 X128.578 Y142.501 E12.15253
G1 X128.994 Y141.854 E12.19091
G1 X129.475 Y141.254 E12.22927
G1 X130.016 Y140.707 E12.26766
G0 F7500 X130.408 Y140.893
G1 F1500 X130.998 Y140.434 E12.30495
G1 X131.634 Y140.039 E12.3423
G1 X132.308 Y139.715 E12.37961
G1 X133.013 Y139.465 E12.41693
G1 X133.741 Y139.291 E12.45427
G1 X134.483 Y139.196 E12.49159
G1 X135 Y139.177 E12.5174
G1 X165 Y139.176 E14.01411
G1 X165.747 Y139.216 E14.05143
G1 X166.485 Y139.335 E14.08873
G1 X167.207 Y139.533 E14.12608
G1 X167.903 Y139.806 E14.16338
G1 X168.566 Y140.153 E14.20071
G1 X169.189 Y140.567 E14.23803
G1 X169.763 Y141.046 E14.27533
G1 X170.283 Y141.584 E14.31265
G1 X170.743 Y142.174 E14.34998
G1 X171.138 Y142.81 E14.38733
G1 X171.462 Y143.484 E14.42464
G1 X171.712 Y144.189 E14.46196
G1 X171.886 Y144.917 E14.4993
G1 X171.981 Y145.659 E14.53662
G1 X172 Y146.176 E14.56243
G1 X172 Y148.323 E14.66955
G1 X171.96 Y149.07 E14.70687
G1 X171.841 Y149.808 E14.74416
G1 X171.643 Y150.53 E14.78151
G1 X171.37 Y151.226 E14.81881
G1 X171.023 Y151.889 E14.85615
G1 X170.608 Y152.512 E14.89349
G1 X170.129 Y153.086 E14.93079
G1 X169.592 Y153.607 E14.96812
G1 X169.002 Y154.066 E15.00541
G1 X168.366 Y154.461 E15.04277
G1 X167.692 Y154.785 E15.08007
G1 X166.987 Y155.035 E15.11739
G1 X166.259 Y155.209 E15.15474
G1 X165.517 Y155.304 E15.19206
G1 X165.001 Y155.323 E15.21782
G1 X163.573 Y155.323 E15.28906
G1 X163.573 Y156.751 E15.3603
G1 X163.533 Y157.498 E15.39763
G1 X163.413 Y158.236 E15.43493
G1 X163.216 Y158.958 E15.47227
G1 X162.942 Y159.654 E15.50958
G1 X162.596 Y160.317 E15.54689
G1 X162.181 Y160.939 E15.5842
G1 X161.702 Y161.514 E15.62154
G1 X161.164 Y162.034 E15.65886
G1 X160.574 Y162.494 E15.69619
G1 X159.938 Y162.888 E15.73351
G1 X159.264 Y163.212 E15.77082
G1 X158.559 Y163.462 E15.80814
G1 X157.831 Y163.636 E15.84549
G1 X157.089 Y163.731 E15.88281
G1 X156.573 Y163.75 E15.90857
G1 X154.427 Y163.75 E16.01563
G1 X153.68 Y163.71 E16.05295
G1 X152.942 Y163.591 E16.09025
G1 X152.22 Y163.393 E16.1276
G1 X151.524 Y163.12 E16.1649
G1 X150.861 Y162.773 E16.20223
G1 X150.238 Y162.358 E16.23958
G1 X150.002 Y162.161 E16.25491
G1 X149.575 Y162.493 E16.2819
G1 X148.939 Y162.888 E16.31925
G1 X148.265 Y163.212 E16.35656
G1 X147.56 Y163.462 E16.39388
G1 X146.832 Y163.636 E16.43122
G1 X146.09 Y163.731 E16.46854
G1 X145.573 Y163.75 E16.49435
G1 X143.427 Y163.75 E16.60142
G1 X142.68 Y163.71 E16.63874
G1 X141.942 Y163.591 E16.67603
G1 X141.22 Y163.393 E16.71338
G1 X140.524 Y163.12 E16.75068
G1 X139.861 Y162.773 E16.78802
G1 X139.238 Y162.358 E16.82536
G1 X138.664 Y161.879 E16.86266
G1 X138.143 Y161.342 E16.89999
G1 X137.684 Y160.752 E16.93728
G1 X137.289 Y160.116 E16.97463
G1 X136.965 Y159.442 E17.01194
G1 X136.715 Y158.737 E17.04926
G1 X136.541 Y158.009 E17.08661
G1 X136.446 Y157.267 E17.12393
G1 X136.427 Y156.751 E17.14969
G1 X136.427 Y155.323 E17.22093
G1 X134.999 Y155.323 E17.29217
G1 X134.252 Y155.283 E17.3295
G1 X133.514 Y155.163 E17.3668
G1 X132.792 Y154.966 E17.40414
G1 X132.096 Y154.692 E17.44145
G1 X131.433 Y154.346 E17.47876
G1 X130.811 Y153.931 E17.51607
G1 X130.236 Y153.452 E17.5534
G1 X129.716 Y152.914 E17.59073
G1 X129.256 Y152.324 E17.62806
G1 X128.862 Y151.688 E17.66538
G1 X128.538 Y151.014 E17.70269
G1 X128.288 Y150.309 E17.74001
G1 X128.114 Y149.581 E17.77735
G1 X128.019 Y148.839 E17.81468
G1 X128 Y148.323 E17.84044
G1 X128 Y146.177 E17.9475
G1 X128.04 Y145.43 E17.98482
G1 X128.159 Y144.692 E18.02212
G1 X128.357 Y143.97 E18.05947
G1 X128.63 Y143.274 E18.09677
G1 X128.977 Y142.611 E18.1341
G1 X129.392 Y141.988 E18.17145
G1 X129.871 Y141.414 E18.20874
G1 X130.408 Y140.893 E18.24607
G0 F7500 X130.265 Y141.579
G1 F1500 X130.799 Y141.086 E18.28233
G1 X131.384 Y140.656 E18.31855
G1 X132.013 Y140.292 E18.35481
G1 X132.678 Y139.999 E18.39107
G1 X133.371 Y139.781 E18.42731
G1 X134.083 Y139.641 E18.46351
G1 X135 Y139.577 E18.50937
G1 X165 Y139.576 E20.00608
G1 X165.725 Y139.616 E20.0423
G1 X166.442 Y139.735 E20.07856
G1 X167.141 Y139.933 E20.11481
G1 X167.814 Y140.206 E20.15104
G1 X168.453 Y140.551 E20.18727
G1 X169.05 Y140.965 E20.22352
G1 X169.598 Y141.441 E20.25973
G1 X170.09 Y141.975 E20.29596
G1 X170.521 Y142.56 E20.33221
G1 X170.885 Y143.189 E20.36846
G1 X171.178 Y143.853 E20.40467
G1 X171.396 Y144.546 E20.44092
G1 X171.536 Y145.259 E20.47717
G1 X171.6 Y146.176 E20.52303
G1 X171.6 Y148.323 E20.63014
G1 X171.56 Y149.048 E20.66637
G1 X171.441 Y149.765 E20.70263
G1 X171.243 Y150.464 E20.73888
G1 X170.97 Y151.137 E20.77511
G1 X170.625 Y151.776 E20.81134
G1 X170.211 Y152.373 E20.84758
G1 X169.735 Y152.921 E20.8838
G1 X169.201 Y153.414 E20.92006
G1 X168.616 Y153.844 E20.95628
G1 X167.987 Y154.208 E20.99253
G1 X167.322 Y154.501 E21.02879
G1 X166.629 Y154.719 E21.06503
G1 X165.917 Y154.859 E21.10124
G1 X165.001 Y154.923 E21.14705
G1 X163.173 Y154.923 E21.23825
G1 X163.173 Y156.751 E21.32944
G1 X163.133 Y157.476 E21.36567
G1 X163.013 Y158.193 E21.40194
G1 X162.816 Y158.891 E21.43812
G1 X162.543 Y159.565 E21.4744
G1 X162.197 Y160.204 E21.51066
G1 X161.784 Y160.801 E21.54687
G1 X161.307 Y161.349 E21.58312
G1 X160.773 Y161.841 E21.61934
G1 X160.188 Y162.272 E21.6556
G1 X159.56 Y162.636 E21.69181
G1 X158.895 Y162.928 E21.72804
G1 X158.202 Y163.146 E21.76429
G1 X157.489 Y163.286 E21.80054
G1 X156.573 Y163.35 E21.84635
G1 X154.427 Y163.35 E21.95341
G1 X153.702 Y163.31 E21.98964
G1 X152.985 Y163.191 E22.0259
G1 X152.286 Y162.993 E22.06215
G1 X151.613 Y162.72 E22.09838
G1 X150.974 Y162.375 E22.13461
G1 X150.377 Y161.961 E22.17085
G1 X149.999 Y161.633 E22.19582
G1 X149.774 Y161.841 E22.21111
G1 X149.189 Y162.271 E22.24733
G1 X148.56 Y162.635 E22.28359
G1 X147.895 Y162.928 E22.31984
G1 X147.202 Y163.146 E22.35609
G1 X146.49 Y163.286 E22.39229
G1 X145.573 Y163.35 E22.43815
G1 X143.427 Y163.35 E22.54521
G1 X142.702 Y163.31 E22.58144
G1 X141.985 Y163.191 E22.6177
G1 X141.286 Y162.993 E22.65395
G1 X140.613 Y162.72 E22.69018
G1 X139.974 Y162.375 E22.72641
G1 X139.377 Y161.961 E22.76265
G1 X138.829 Y161.485 E22.79887
G1 X138.336 Y160.951 E22.83513
G1 X137.906 Y160.366 E22.87135
G1 X137.542 Y159.737 E22.9076
G1 X137.249 Y159.072 E22.94386
G1 X137.031 Y158.379 E22.9801
G1 X136.891 Y157.667 E23.01631
G1 X136.827 Y156.751 E23.06212
G1 X136.827 Y154.923 E23.15332
G1 X134.999 Y154.923 E23.24451
G1 X134.274 Y154.883 E23.28074
G1 X133.557 Y154.763 E23.31701
G1 X132.859 Y154.566 E23.35319
G1 X132.185 Y154.293 E23.38947
G1 X131.546 Y153.947 E23.42573
G1 X130.949 Y153.534 E23.46194
G1 X130.401 Y153.057 E23.49819
G1 X129.909 Y152.523 E23.53441
G1 X129.478 Y151.938 E23.57067
G1 X129.114 Y151.31 E23.60688
G1 X128.822 Y150.645 E23.64311
G1 X128.604 Y149.952 E23.67936
G1 X128.464 Y149.239 E23.71561
G1 X128.4 Y148.323 E23.76142
G1 X128.4 Y146.177 E23.86848
G1 X128.44 Y145.452 E23.90471
G1 X128.559 Y144.735 E23.94097
G1 X128.757 Y144.036 E23.97722
G1 X129.03 Y143.363 E24.01345
G1 X129.375 Y142.724 E24.04968
G1 X129.789 Y142.127 E24.08592
G1 X130.265 Y141.579 E24.12214
G0 F7500 X130.659 Y141.75
G1 F1500 X131.189 Y141.286 E24.15728
G1 X131.768 Y140.886 E24.19239
G1 X132.389 Y140.554 E24.22752
G1 X133.043 Y140.294 E24.26263
G1 X133.723 Y140.11 E24.29778
G1 X134.419 Y140.004 E24.3329
G1 X135 Y139.977 E24.36192
G1 X165 Y139.976 E25.85863
G1 X165.703 Y140.016 E25.89376
G1 X166.396 Y140.135 E25.92884
G1 X167.072 Y140.333 E25.96398
G1 X167.721 Y140.605 E25.99909
G1 X168.335 Y140.95 E26.03422
G1 X168.906 Y141.361 E26.06932
G1 X169.427 Y141.835 E26.10446
G1 X169.89 Y142.365 E26.13957
G1 X170.291 Y142.944 E26.17471
G1 X170.623 Y143.565 E26.20984
G1 X170.883 Y144.219 E26.24495
G1 X171.067 Y144.898 E26.28005
G1 X171.173 Y145.594 E26.31518
G1 X171.2 Y146.176 E26.34424
G1 X171.2 Y148.323 E26.45136
G1 X171.16 Y149.026 E26.48649
G1 X171.041 Y149.72 E26.52162
G1 X170.843 Y150.395 E26.55671
G1 X170.571 Y151.044 E26.59182
G1 X170.226 Y151.658 E26.62696
G1 X169.815 Y152.229 E26.66206
G1 X169.341 Y152.75 E26.6972
G1 X168.811 Y153.214 E26.73234
G1 X168.232 Y153.614 E26.76745
G1 X167.611 Y153.946 E26.80258
G1 X166.957 Y154.206 E26.83769
G1 X166.277 Y154.39 E26.87284
G1 X165.581 Y154.496 E26.90796
G1 X165.001 Y154.523 E26.93693
G1 X162.773 Y154.523 E27.04808
G1 X162.773 Y156.751 E27.15924
G1 X162.733 Y157.454 E27.19437
G1 X162.613 Y158.147 E27.22946
G1 X162.416 Y158.823 E27.26459
G1 X162.143 Y159.472 E27.29971
G1 X161.799 Y160.086 E27.33483
G1 X161.387 Y160.657 E27.36995
G1 X160.913 Y161.178 E27.40509
G1 X160.383 Y161.641 E27.44021
G1 X159.804 Y162.041 E27.47531
G1 X159.184 Y162.374 E27.51043
