;FLAVOR:Marlin
;TIME:14873
;Filament used: 4.86159m
;Layer height: 0.1
;MINX:114.2
;MINY:112.2
;MINZ:0.3
;MAXX:185.8
;MAXY:187.8
;MAXZ:20
;Generated with Cura_SteamEngine master
M140 S60
M105
M190 S60
M104 S200
M105
M109 S200
M82 ;absolute extrusion mode

G21 ;metric values
G90 ;absolute positioning
M82 ;set extruder to absolute mode
M107 ;start with the fan off
G28 ;move X/Y/Z to min endstops
G29 ;auto level
G1 Z15.0 F9000 ;move the platform down 15mm
G92 E0 ;zero the extruded length
G1 F200 E3 ;extrude 3mm of feed stock
G92 E0 ;zero the extruded length again
G1 F9000
;Put printing message on LCD screen
M117 Printing...
G92 E0
G92 E0
G1 F1500 E-6.5
;LAYER_COUNT:198
;LAYER:0
M107
M204 S1000
G0 F7500 X116.623 Y114.349 Z0.3
;TYPE:SKIRT
G1 F1500 E0
G1 X117.222 Y113.834 E0.03941
G1 X117.87 Y113.383 E0.0788
G1 X118.561 Y112.999 E0.11824
G1 X119.286 Y112.687 E0.15762
G1 X120.039 Y112.45 E0.197
G1 X120.813 Y112.291 E0.23642
G1 X121.598 Y112.21 E0.27579
G1 X122 Y112.2 E0.29586
G1 X178 Y112.2 E3.08971
G1 X178.789 Y112.24 E3.12912
G1 X179.569 Y112.359 E3.16849
G1 X180.334 Y112.557 E3.20791
G1 X181.074 Y112.831 E3.24728
G1 X181.783 Y113.179 E3.28668
G1 X182.454 Y113.597 E3.32612
G1 X183.078 Y114.08 E3.36549
G1 X183.651 Y114.623 E3.40487
G1 X184.166 Y115.222 E3.44428
G1 X184.617 Y115.87 E3.48367
G1 X185.001 Y116.561 E3.52311
G1 X185.313 Y117.286 E3.56249
G1 X185.55 Y118.039 E3.60187
G1 X185.709 Y118.813 E3.6413
G1 X185.79 Y119.598 E3.68067
G1 X185.8 Y120 E3.70073
G1 X185.8 Y140 E4.69853
G1 X185.76 Y140.789 E4.73795
G1 X185.641 Y141.569 E4.77731
G1 X185.443 Y142.334 E4.81674
G1 X185.169 Y143.074 E4.8561
G1 X184.821 Y143.783 E4.89551
G1 X184.403 Y144.454 E4.93495
G1 X183.92 Y145.078 E4.97432
G1 X183.377 Y145.651 E5.0137
G1 X182.778 Y146.166 E5.05311
G1 X182.13 Y146.617 E5.0925
G1 X181.439 Y147.001 E5.13194
G1 X180.714 Y147.313 E5.17132
G1 X179.961 Y147.55 E5.2107
G1 X179.187 Y147.709 E5.25012
G1 X178.402 Y147.79 E5.28949
G1 X178 Y147.8 E5.30956
G1 X122 Y147.8 E8.10341
G1 X121.211 Y147.76 E8.14282
G1 X120.431 Y147.641 E8.18218
G1 X119.666 Y147.443 E8.22161
G1 X118.926 Y147.169 E8.26098
G1 X118.217 Y146.821 E8.30038
G1 X117.546 Y146.403 E8.33982
G1 X116.922 Y145.92 E8.37919
G1 X116.349 Y145.377 E8.41857
G1 X115.834 Y144.778 E8.45798
G1 X115.383 Y144.13 E8.49737
G1 X114.999 Y143.439 E8.53681
G1 X114.687 Y142.714 E8.57619
G1 X114.45 Y141.961 E8.61557
G1 X114.291 Y141.187 E8.65499
G1 X114.21 Y140.402 E8.69437
G1 X114.2 Y140 E8.71443
G1 X114.2 Y120 E9.71223
G1 X114.24 Y119.211 E9.75165
G1 X114.359 Y118.431 E9.79101
G1 X114.557 Y117.666 E9.83043
G1 X114.831 Y116.926 E9.8698
G1 X115.179 Y116.217 E9.90921
G1 X115.597 Y115.546 E9.94865
G1 X116.08 Y114.922 E9.98801
G1 X116.623 Y114.349 E10.0274
G0 F7500 X117.016 Y114.53
G1 F1500 X117.611 Y114.042 E10.06579
G1 X118.253 Y113.619 E10.10415
G1 X118.936 Y113.264 E10.14255
G1 X119.651 Y112.983 E10.18088
G1 X120.393 Y112.777 E10.2193
G1 X121.151 Y112.649 E10.25765
G1 X122 Y112.6 E10.30008
G1 X178 Y112.6 E13.09393
G1 X178.768 Y112.64 E13.13229
G1 X179.528 Y112.759 E13.17067
G1 X180.271 Y112.957 E13.20904
G1 X180.99 Y113.231 E13.24742
G1 X181.676 Y113.578 E13.28578
G1 X182.323 Y113.994 E13.32415
G1 X182.923 Y114.475 E13.36252
G1 X183.47 Y115.016 E13.4009
G1 X183.958 Y115.611 E13.43929
G1 X184.381 Y116.253 E13.47765
G1 X184.736 Y116.936 E13.51605
G1 X185.017 Y117.651 E13.55438
G1 X185.223 Y118.393 E13.5928
G1 X185.351 Y119.151 E13.63115
G1 X185.4 Y120 E13.67358
G1 X185.4 Y140 E14.67138
G1 X185.36 Y140.768 E14.70975
G1 X185.241 Y141.528 E14.74813
G1 X185.043 Y142.271 E14.78649
G1 X184.769 Y142.99 E14.82488
G1 X184.422 Y143.676 E14.86323
G1 X184.006 Y144.323 E14.90161
G1 X183.525 Y144.923 E14.93997
G1 X182.984 Y145.47 E14.97836
G1 X182.389 Y145.958 E15.01675
G1 X181.747 Y146.381 E15.0551
G1 X181.064 Y146.736 E15.09351
G1 X180.349 Y147.017 E15.13183
G1 X179.607 Y147.223 E15.17025
G1 X178.849 Y147.351 E15.20861
G1 X178 Y147.4 E15.25103
G1 X122 Y147.4 E18.04488
G1 X121.232 Y147.36 E18.08325
G1 X120.472 Y147.241 E18.12163
G1 X119.729 Y147.043 E18.15999
G1 X119.01 Y146.769 E18.19838
G1 X118.324 Y146.422 E18.23673
G1 X117.677 Y146.006 E18.27511
G1 X117.077 Y145.525 E18.31347
G1 X116.53 Y144.984 E18.35186
G1 X116.042 Y144.389 E18.39025
G1 X115.619 Y143.747 E18.42861
G1 X115.264 Y143.064 E18.46701
G1 X114.983 Y142.349 E18.50534
G1 X114.777 Y141.607 E18.54376
G1 X114.649 Y140.849 E18.58211
G1 X114.6 Y140 E18.62453
G1 X114.6 Y120 E19.62234
G1 X114.64 Y119.232 E19.66071
G1 X114.759 Y118.472 E19.69908
G1 X114.957 Y117.729 E19.73745
G1 X115.231 Y117.01 E19.77583
G1 X115.578 Y116.324 E19.81419
G1 X115.994 Y115.677 E19.85256
G1 X116.475 Y115.077 E19.89093
G1 X117.016 Y114.53 E19.92931
G0 F7500 X117.408 Y114.716
G1 F1500 X117.998 Y114.257 E19.96661
G1 X118.634 Y113.862 E20.00396
G1 X119.308 Y113.538 E20.04127
G1 X120.013 Y113.288 E20.07859
G1 X120.741 Y113.114 E20.11593
G1 X121.483 Y113.019 E20.15325
G1 X122 Y113 E20.17906
G1 X178 Y113 E22.97291
G1 X178.747 Y113.04 E23.01023
G1 X179.485 Y113.159 E23.04753
G1 X180.207 Y113.357 E23.08488
G1 X180.903 Y113.63 E23.12218
G1 X181.566 Y113.977 E23.15951
G1 X182.189 Y114.392 E23.19686
G1 X182.763 Y114.871 E23.23416
G1 X183.284 Y115.408 E23.27148
G1 X183.743 Y115.998 E23.30878
G1 X184.138 Y116.634 E23.34613
G1 X184.462 Y117.308 E23.38344
G1 X184.712 Y118.013 E23.42076
G1 X184.886 Y118.741 E23.4581
G1 X184.981 Y119.483 E23.49542
G1 X185 Y120 E23.52123
G1 X185 Y140 E24.51904
G1 X184.96 Y140.747 E24.55636
G1 X184.841 Y141.485 E24.59365
G1 X184.643 Y142.207 E24.631
G1 X184.37 Y142.903 E24.6683
G1 X184.023 Y143.566 E24.70563
G1 X183.608 Y144.189 E24.74298
G1 X183.129 Y144.763 E24.78028
G1 X182.592 Y145.284 E24.81761
G1 X182.002 Y145.743 E24.8549
G1 X181.366 Y146.138 E24.89225
G1 X180.692 Y146.462 E24.92956
G1 X179.987 Y146.712 E24.96688
G1 X179.259 Y146.886 E25.00422
G1 X178.517 Y146.981 E25.04154
G1 X178 Y147 E25.06736
G1 X122 Y147 E27.86121
G1 X121.253 Y146.96 E27.89853
G1 X120.515 Y146.841 E27.93582
G1 X119.793 Y146.643 E27.97317
G1 X119.097 Y146.37 E28.01047
G1 X118.434 Y146.023 E28.04781
G1 X117.811 Y145.608 E28.08515
G1 X117.237 Y145.129 E28.12245
G1 X116.716 Y144.592 E28.15978
G1 X116.257 Y144.002 E28.19707
G1 X115.862 Y143.366 E28.23442
G1 X115.538 Y142.692 E28.27173
G1 X115.288 Y141.987 E28.30905
G1 X115.114 Y141.259 E28.3464
G1 X115.019 Y140.517 E28.38372
G1 X115 Y140 E28.40953
G1 X115 Y120 E29.40733
G1 X115.04 Y119.253 E29.44465
G1 X115.159 Y118.515 E29.48195
G1 X115.357 Y117.793 E29.5193
G1 X115.63 Y117.097 E29.5566
G1 X115.977 Y116.434 E29.59393
G1 X116.392 Y115.811 E29.63128
G1 X116.871 Y115.237 E29.66857
G1 X117.408 Y114.716 E29.7059
G0 F7500 X117.265 Y115.402
G1 F1500 X117.799 Y114.909 E29.74216
G1 X118.384 Y114.479 E29.77838
G1 X119.013 Y114.115 E29.81464
G1 X119.678 Y113.822 E29.8509
G1 X120.371 Y113.604 E29.88714
G1 X121.083 Y113.464 E29.92334
G1 X122 Y113.4 E29.9692
G1 X178 Y113.4 E32.76305
G1 X178.725 Y113.44 E32.79928
G1 X179.442 Y113.559 E32.83554
G1 X180.141 Y113.757 E32.87178
G1 X180.814 Y114.03 E32.90802
G1 X181.453 Y114.375 E32.94425
G1 X182.05 Y114.789 E32.98049
G1 X182.598 Y115.265 E33.01671
G1 X183.091 Y115.799 E33.05297
G1 X183.521 Y116.384 E33.08919
G1 X183.885 Y117.013 E33.12544
G1 X184.178 Y117.678 E33.1617
G1 X184.396 Y118.371 E33.19794
G1 X184.536 Y119.083 E33.23415
G1 X184.6 Y120 E33.28001
G1 X184.6 Y140 E34.27781
G1 X184.56 Y140.725 E34.31404
G1 X184.441 Y141.442 E34.3503
G1 X184.243 Y142.141 E34.38654
G1 X183.97 Y142.814 E34.42277
G1 X183.625 Y143.453 E34.459
G1 X183.211 Y144.05 E34.49525
G1 X182.735 Y144.598 E34.53146
G1 X182.201 Y145.091 E34.56772
G1 X181.616 Y145.521 E34.60394
G1 X180.987 Y145.885 E34.6402
G1 X180.322 Y146.178 E34.67646
G1 X179.629 Y146.396 E34.7127
G1 X178.917 Y146.536 E34.7489
G1 X178 Y146.6 E34.79476
G1 X122 Y146.6 E37.58861
G1 X121.275 Y146.56 E37.62484
G1 X120.558 Y146.441 E37.6611
G1 X119.859 Y146.243 E37.69734
G1 X119.186 Y145.97 E37.73358
G1 X118.547 Y145.625 E37.76981
G1 X117.95 Y145.211 E37.80605
G1 X117.402 Y144.735 E37.84227
G1 X116.909 Y144.201 E37.87853
G1 X116.479 Y143.616 E37.91475
G1 X116.115 Y142.987 E37.951
G1 X115.822 Y142.322 E37.98726
G1 X115.604 Y141.629 E38.0235
G1 X115.464 Y140.917 E38.05971
G1 X115.4 Y140 E38.10557
G1 X115.4 Y120 E39.10337
G1 X115.44 Y119.275 E39.1396
G1 X115.559 Y118.558 E39.17586
G1 X115.757 Y117.859 E39.2121
G1 X116.03 Y117.186 E39.24833
G1 X116.375 Y116.547 E39.28456
G1 X116.789 Y115.95 E39.32081
G1 X117.265 Y115.402 E39.35702
G0 F7500 X117.659 Y115.573
G1 F1500 X118.189 Y115.109 E39.39217
G1 X118.768 Y114.709 E39.42728
G1 X119.389 Y114.377 E39.46241
G1 X120.043 Y114.117 E39.49752
G1 X120.723 Y113.933 E39.53266
G1 X121.419 Y113.827 E39.56779
G1 X122 Y113.8 E39.59681
G1 X178 Y113.8 E42.39066
G1 X178.703 Y113.84 E42.42579
G1 X179.397 Y113.959 E42.46092
G1 X180.072 Y114.157 E42.49601
G1 X180.721 Y114.429 E42.53112
G1 X181.335 Y114.774 E42.56626
G1 X181.906 Y115.185 E42.60136
G1 X182.427 Y115.659 E42.6365
G1 X182.891 Y116.189 E42.67164
G1 X183.291 Y116.768 E42.70675
G1 X183.623 Y117.389 E42.74188
G1 X183.883 Y118.043 E42.77699
G1 X184.067 Y118.723 E42.81214
G1 X184.173 Y119.419 E42.84726
G1 X184.2 Y120 E42.87628
G1 X184.2 Y140 E43.87408
G1 X184.16 Y140.703 E43.90921
G1 X184.041 Y141.397 E43.94434
G1 X183.843 Y142.072 E43.97944
G1 X183.571 Y142.721 E44.01454
G1 X183.226 Y143.335 E44.04968
G1 X182.815 Y143.906 E44.08478
G1 X182.341 Y144.427 E44.11992
G1 X181.811 Y144.891 E44.15506
G1 X181.232 Y145.291 E44.19017
G1 X180.611 Y145.623 E44.2253
G1 X179.957 Y145.883 E44.26042
G1 X179.277 Y146.067 E44.29556
G1 X178.581 Y146.173 E44.33069
G1 X178 Y146.2 E44.3597
G1 X122 Y146.2 E47.15355
G1 X121.297 Y146.16 E47.18868
G1 X120.603 Y146.041 E47.22381
G1 X119.928 Y145.843 E47.25891
G1 X119.279 Y145.571 E47.29402
G1 X118.665 Y145.226 E47.32915
G1 X118.094 Y144.815 E47.36425
G1 X117.573 Y144.341 E47.39939
G1 X117.109 Y143.811 E47.43454
G1 X116.709 Y143.232 E47.46965
G1 X116.377 Y142.611 E47.50478
G1 X116.117 Y141.957 E47.53989
G1 X115.933 Y141.277 E47.57503
G1 X115.827 Y140.581 E47.61016
G1 X115.8 Y140 E47.63918
G1 X115.8 Y120 E48.63698
G1 X115.84 Y119.297 E48.67211
G1 X115.959 Y118.603 E48.70724
G1 X116.157 Y117.928 E48.74233
G1 X116.429 Y117.279 E48.77744
G1 X116.774 Y116.665 E48.81258
G1 X117.185 Y116.094 E48.84768
G1 X117.659 Y115.573 E48.88282
G0 F7500 X118.053 Y115.751
G1 F1500 X118.578 Y115.317 E48.9168
G1 X119.15 Y114.948 E48.95076
G1 X119.762 Y114.649 E48.98474
G1 X120.404 Y114.424 E49.01868
G1 X121.069 Y114.275 E49.05268
G1 X122 Y114.2 E49.09928
G1 X178 Y114.2 E51.89313
G1 X178.68 Y114.24 E51.92712
G1 X179.35 Y114.359 E51.96107
G1 X180.002 Y114.556 E51.99505
G1 X180.626 Y114.828 E52.02901
G1 X181.214 Y115.172 E52.06299
G1 X181.758 Y115.582 E52.09698
G1 X182.249 Y116.053 E52.13092
G1 X182.683 Y116.578 E52.16491
G1 X183.052 Y117.15 E52.19887
G1 X183.351 Y117.762 E52.23285
G1 X183.576 Y118.404 E52.26679
G1 X183.725 Y119.069 E52.30079
G1 X183.8 Y120 E52.34739
G1 X183.8 Y140 E53.34519
G1 X183.76 Y140.68 E53.37917
G1 X183.641 Y141.35 E53.41312
G1 X183.444 Y142.002 E53.4471
G1 X183.172 Y142.626 E53.48107
G1 X182.828 Y143.214 E53.51505
G1 X182.418 Y143.758 E53.54904
G1 X181.947 Y144.249 E53.58298
G1 X181.422 Y144.683 E53.61697
G1 X180.85 Y145.052 E53.65093
G1 X180.238 Y145.351 E53.68491
G1 X179.596 Y145.576 E53.71885
G1 X178.931 Y145.725 E53.75285
G1 X178 Y145.8 E53.79944
G1 X122 Y145.8 E56.5933
G1 X121.32 Y145.76 E56.62728
G1 X120.65 Y145.641 E56.66123
G1 X119.998 Y145.444 E56.69521
G1 X119.374 Y145.172 E56.72917
G1 X118.786 Y144.828 E56.76316
G1 X118.242 Y144.418 E56.79714
G1 X117.751 Y143.947 E56.83109
G1 X117.317 Y143.422 E56.86507
G1 X116.948 Y142.85 E56.89903
G1 X116.649 Y142.238 E56.93301
G1 X116.424 Y141.596 E56.96695
G1 X116.275 Y140.931 E57.00095
G1 X116.2 Y140 E57.04755
G1 X116.2 Y120 E58.04535
G1 X116.24 Y119.32 E58.07934
G1 X116.359 Y118.65 E58.11329
G1 X116.556 Y117.998 E58.14727
G1 X116.828 Y117.374 E58.18123
G1 X117.172 Y116.786 E58.21522
G1 X117.582 Y116.242 E58.2492
G1 X118.053 Y115.751 E58.28315
G0 F7500 X118.445 Y115.935
G1 F1500 X118.965 Y115.534 E58.31591
G1 X119.529 Y115.198 E58.34866
G1 X120.131 Y114.934 E58.38145
G1 X120.76 Y114.744 E58.41424
G1 X121.407 Y114.633 E58.44699
G1 X122 Y114.6 E58.47662
G1 X178 Y114.6 E61.27047
G1 X178.656 Y114.64 E61.30326
G1 X179.302 Y114.759 E61.33603
G1 X179.929 Y114.956 E61.36882
G1 X180.527 Y115.228 E61.40159
G1 X181.088 Y115.57 E61.43437
G1 X181.603 Y115.978 E61.46715
G1 X182.065 Y116.445 E61.49992
G1 X182.466 Y116.965 E61.53269
G1 X182.802 Y117.529 E61.56544
G1 X183.066 Y118.131 E61.59823
G1 X183.256 Y118.76 E61.63102
G1 X183.367 Y119.407 E61.66377
G1 X183.4 Y120 E61.6934
G1 X183.4 Y140 E62.6912
G1 X183.36 Y140.656 E62.72399
G1 X183.241 Y141.302 E62.75676
G1 X183.044 Y141.929 E62.78955
G1 X182.772 Y142.527 E62.82232
G1 X182.43 Y143.088 E62.8551
G1 X182.022 Y143.603 E62.88788
G1 X181.555 Y144.065 E62.92066
G1 X181.035 Y144.466 E62.95342
G1 X180.471 Y144.802 E62.98617
G1 X179.869 Y145.066 E63.01897
G1 X179.24 Y145.256 E63.05175
G1 X178.593 Y145.367 E63.0845
G1 X178 Y145.4 E63.11413
G1 X122 Y145.4 E65.90798
G1 X121.344 Y145.36 E65.94077
G1 X120.698 Y145.241 E65.97354
G1 X120.071 Y145.044 E66.00633
G1 X119.473 Y144.772 E66.0391
G1 X118.912 Y144.43 E66.07188
G1 X118.397 Y144.022 E66.10466
G1 X117.935 Y143.555 E66.13744
G1 X117.534 Y143.035 E66.1702
G1 X117.198 Y142.471 E66.20295
G1 X116.934 Y141.869 E66.23574
G1 X116.744 Y141.24 E66.26853
G1 X116.633 Y140.593 E66.30128
G1 X116.6 Y140 E66.33091
G1 X116.6 Y120 E67.32871
G1 X116.64 Y119.344 E67.3615
G1 X116.759 Y118.698 E67.39427
G1 X116.956 Y118.071 E67.42706
G1 X117.228 Y117.473 E67.45984
G1 X117.57 Y116.912 E67.49262
G1 X117.978 Y116.397 E67.52539
G1 X118.445 Y115.935 E67.55817
G0 F7500 X118.373 Y116.559
G1 F1500 X118.836 Y116.129 E67.58969
G1 X119.35 Y115.76 E67.62126
G1 X119.906 Y115.46 E67.65278
G1 X120.495 Y115.232 E67.68429
G1 X121.109 Y115.08 E67.71585
G1 X122 Y115 E67.76048
G1 X178 Y115 E70.55433
G1 X178.631 Y115.04 E70.58587
G1 X179.252 Y115.159 E70.61742
G1 X179.852 Y115.356 E70.64892
G1 X180.424 Y115.627 E70.6805
G1 X180.956 Y115.967 E70.712
G1 X181.441 Y116.373 E70.74356
G1 X181.871 Y116.836 E70.77508
G1 X182.24 Y117.35 E70.80665
G1 X182.54 Y117.906 E70.83817
G1 X182.768 Y118.495 E70.86968
G1 X182.92 Y119.109 E70.90124
G1 X183 Y120 E70.94587
G1 X183 Y140 E71.94367
G1 X182.96 Y140.631 E71.97521
G1 X182.841 Y141.252 E72.00676
G1 X182.644 Y141.852 E72.03827
G1 X182.373 Y142.424 E72.06984
G1 X182.033 Y142.956 E72.10134
G1 X181.627 Y143.441 E72.1329
G1 X181.164 Y143.871 E72.16442
G1 X180.65 Y144.24 E72.19599
G1 X180.094 Y144.54 E72.22751
G1 X179.505 Y144.768 E72.25902
G1 X178.891 Y144.92 E72.29058
G1 X178 Y145 E72.33521
G1 X122 Y145 E75.12906
G1 X121.369 Y144.96 E75.1606
G1 X120.748 Y144.841 E75.19215
G1 X120.148 Y144.644 E75.22366
G1 X119.576 Y144.373 E75.25523
G1 X119.044 Y144.033 E75.28673
G1 X118.559 Y143.627 E75.31829
G1 X118.129 Y143.164 E75.34981
G1 X117.76 Y142.65 E75.38138
G1 X117.46 Y142.094 E75.4129
G1 X117.232 Y141.505 E75.44441
G1 X117.08 Y140.891 E75.47597
G1 X117 Y140 E75.5206
G1 X117 Y120 E76.5184
G1 X117.04 Y119.369 E76.54995
G1 X117.159 Y118.748 E76.58149
G1 X117.356 Y118.148 E76.613
G1 X117.627 Y117.576 E76.64458
G1 X117.967 Y117.044 E76.67608
G1 X118.373 Y116.559 E76.70763
G0 F7500 X118.767 Y116.728
G1 F1500 X119.225 Y116.331 E76.73787
G1 X119.732 Y115.998 E76.76813
G1 X120.278 Y115.734 E76.79839
G1 X120.854 Y115.545 E76.82863
G1 X121.45 Y115.433 E76.85889
G1 X122 Y115.4 E76.88638
G1 X178 Y115.4 E79.68023
G1 X178.605 Y115.44 E79.71048
G1 X179.199 Y115.559 E79.7407
G1 X179.773 Y115.755 E79.77096
G1 X180.316 Y116.026 E79.80124
G1 X180.819 Y116.365 E79.8315
G1 X181.272 Y116.767 E79.86172
G1 X181.669 Y117.225 E79.89196
G1 X182.002 Y117.732 E79.92222
G1 X182.266 Y118.278 E79.95248
G1 X182.455 Y118.854 E79.98272
G1 X182.567 Y119.45 E80.01298
G1 X182.6 Y120 E80.04046
G1 X182.6 Y140 E81.03827
G1 X182.56 Y140.605 E81.06852
G1 X182.441 Y141.199 E81.09874
G1 X182.245 Y141.773 E81.129
G1 X181.974 Y142.316 E81.15928
G1 X181.635 Y142.819 E81.18954
