;FLAVOR:Marlin
;TIME:775
;Filament used: 0.38338m
;Layer height: 0.15
;MINX:132.2
;MINY:138.377
;MINZ:0.3
;MAXX:167.8
;MAXY:164.55
;MAXZ:7.95
;Generated with Cura_SteamEngine master
M140 S60
M105
M190 S60
M104 S200
M105
M109 S200
M82 ;absolute extrusion mode

G21 ;metric values
G90 ;absolute positioning
M82 ;set extruder to absolute mode
M107 ;start with the fan off
G28 ;move X/Y/Z to min endstops
G29 ;auto level
G1 Z15.0 F9000 ;move the platform down 15mm
G92 E0 ;zero the extruded length
G1 F200 E3 ;extrude 3mm of feed stock
G92 E0 ;zero the extruded length again
G1 F9000
;Put printing message on LCD screen
M117 Printing...
G92 E0
G92 E0
G1 F1500 E-6.5
;LAYER_COUNT:52
;LAYER:0
M107
M204 S1000
G0 F7500 X134.623 Y140.526 Z0.3
;TYPE:SKIRT
G1 F1500 E0
G1 X135.222 Y140.011 E0.03941
G1 X135.87 Y139.56 E0.0788
G1 X136.561 Y139.176 E0.11824
G1 X137.286 Y138.864 E0.15762
G1 X138.039 Y138.627 E0.197
G1 X138.813 Y138.468 E0.23642
G1 X139.598 Y138.387 E0.27579
G1 X140 Y138.377 E0.29586
G1 X160 Y138.377 E1.29366
G1 X160.789 Y138.417 E1.33307
G1 X161.569 Y138.536 E1.37244
G1 X162.334 Y138.734 E1.41186
G1 X163.074 Y139.008 E1.45123
G1 X163.783 Y139.356 E1.49063
G1 X164.454 Y139.774 E1.53007
G1 X165.078 Y140.257 E1.56944
G1 X165.651 Y140.8 E1.60883
G1 X166.166 Y141.399 E1.64824
G1 X166.617 Y142.047 E1.68763
G1 X167.001 Y142.738 E1.72706
G1 X167.313 Y143.463 E1.76644
G1 X167.55 Y144.216 E1.80583
G1 X167.709 Y144.99 E1.84525
G1 X167.79 Y145.775 E1.88462
G1 X167.8 Y146.177 E1.90468
G1 X167.8 Y148.323 E2.01175
G1 X167.76 Y149.112 E2.05116
G1 X167.641 Y149.892 E2.09052
G1 X167.443 Y150.657 E2.12995
G1 X167.169 Y151.397 E2.16932
G1 X166.821 Y152.106 E2.20872
G1 X166.403 Y152.777 E2.24816
G1 X165.92 Y153.401 E2.28753
G1 X165.377 Y153.974 E2.32691
G1 X164.778 Y154.489 E2.36632
G1 X164.13 Y154.94 E2.40571
G1 X163.439 Y155.324 E2.44515
G1 X162.714 Y155.636 E2.48453
G1 X161.961 Y155.873 E2.52391
G1 X161.187 Y156.032 E2.56333
G1 X160.402 Y156.113 E2.60271
G1 X160.001 Y156.123 E2.62272
G1 X158.873 Y156.123 E2.67899
G1 X158.873 Y156.751 E2.71033
G1 X158.833 Y157.54 E2.74974
G1 X158.713 Y158.32 E2.78911
G1 X158.515 Y159.085 E2.82854
G1 X158.241 Y159.825 E2.8679
G1 X157.894 Y160.534 E2.90728
G1 X157.476 Y161.204 E2.94668
G1 X156.993 Y161.829 E2.98609
G1 X156.449 Y162.402 E3.02551
G1 X155.85 Y162.916 E3.06489
G1 X155.202 Y163.368 E3.1043
G1 X154.512 Y163.751 E3.14368
G1 X153.786 Y164.063 E3.1831
G1 X153.033 Y164.3 E3.22248
G1 X152.259 Y164.459 E3.2619
G1 X151.474 Y164.54 E3.30128
G1 X151.073 Y164.55 E3.32129
G1 X148.927 Y164.55 E3.42835
G1 X148.138 Y164.51 E3.46777
G1 X147.358 Y164.391 E3.50713
G1 X146.593 Y164.193 E3.54656
G1 X145.853 Y163.919 E3.58592
G1 X145.144 Y163.571 E3.62533
G1 X144.473 Y163.153 E3.66477
G1 X143.849 Y162.67 E3.70414
G1 X143.276 Y162.127 E3.74352
G1 X142.761 Y161.528 E3.78293
G1 X142.31 Y160.88 E3.82232
G1 X141.926 Y160.189 E3.86176
G1 X141.614 Y159.464 E3.90114
G1 X141.377 Y158.711 E3.94052
G1 X141.218 Y157.937 E3.97994
G1 X141.137 Y157.152 E4.01931
G1 X141.127 Y156.751 E4.03933
G1 X141.127 Y156.123 E4.07066
G1 X139.999 Y156.123 E4.12693
G1 X139.21 Y156.083 E4.16635
G1 X138.43 Y155.963 E4.20572
G1 X137.665 Y155.765 E4.24514
G1 X136.925 Y155.491 E4.28451
G1 X136.216 Y155.144 E4.32389
G1 X135.546 Y154.726 E4.36329
G1 X134.921 Y154.243 E4.4027
G1 X134.348 Y153.699 E4.44212
G1 X133.834 Y153.1 E4.48149
G1 X133.382 Y152.452 E4.52091
G1 X132.999 Y151.762 E4.56028
G1 X132.687 Y151.036 E4.59971
G1 X132.45 Y150.283 E4.63909
G1 X132.291 Y149.509 E4.67851
G1 X132.21 Y148.724 E4.71788
G1 X132.2 Y148.323 E4.7379
G1 X132.2 Y146.177 E4.84496
G1 X132.24 Y145.388 E4.88437
G1 X132.359 Y144.608 E4.92374
G1 X132.557 Y143.843 E4.96316
G1 X132.831 Y143.103 E5.00253
G1 X133.179 Y142.394 E5.04193
G1 X133.597 Y141.723 E5.08137
G1 X134.08 Y141.099 E5.12074
G1 X134.623 Y140.526 E5.16013
G0 F7500 X135.016 Y140.707
G1 F1500 X135.611 Y140.219 E5.19852
G1 X136.253 Y139.796 E5.23687
G1 X136.936 Y139.441 E5.27528
G1 X137.651 Y139.16 E5.31361
G1 X138.393 Y138.954 E5.35202
G1 X139.151 Y138.826 E5.39038
G1 X140 Y138.777 E5.4328
G1 X160 Y138.777 E6.43061
G1 X160.768 Y138.817 E6.46898
G1 X161.528 Y138.936 E6.50735
G1 X162.271 Y139.134 E6.54572
G1 X162.99 Y139.408 E6.5841
G1 X163.676 Y139.755 E6.62246
G1 X164.323 Y140.171 E6.66083
G1 X164.923 Y140.652 E6.6992
G1 X165.47 Y141.193 E6.73758
G1 X165.958 Y141.788 E6.77597
G1 X166.381 Y142.43 E6.81433
G1 X166.736 Y143.113 E6.85273
G1 X167.017 Y143.828 E6.89106
G1 X167.223 Y144.57 E6.92948
G1 X167.351 Y145.328 E6.96783
G1 X167.4 Y146.177 E7.01026
G1 X167.4 Y148.323 E7.11732
G1 X167.36 Y149.091 E7.15569
G1 X167.241 Y149.851 E7.19407
G1 X167.043 Y150.594 E7.23243
G1 X166.769 Y151.313 E7.27082
G1 X166.422 Y151.999 E7.30917
G1 X166.006 Y152.646 E7.34755
G1 X165.525 Y153.246 E7.38591
G1 X164.984 Y153.793 E7.4243
G1 X164.389 Y154.281 E7.46269
G1 X163.747 Y154.704 E7.50104
G1 X163.064 Y155.059 E7.53945
G1 X162.349 Y155.34 E7.57777
G1 X161.607 Y155.546 E7.61619
G1 X160.849 Y155.674 E7.65455
G1 X160.001 Y155.723 E7.69692
G1 X158.473 Y155.723 E7.77316
G1 X158.473 Y156.751 E7.82444
G1 X158.433 Y157.519 E7.86281
G1 X158.313 Y158.279 E7.9012
G1 X158.116 Y159.022 E7.93955
G1 X157.842 Y159.741 E7.97793
G1 X157.495 Y160.427 E8.01629
G1 X157.078 Y161.074 E8.05469
G1 X156.597 Y161.674 E8.09306
G1 X156.056 Y162.221 E8.13144
G1 X155.461 Y162.708 E8.1698
G1 X154.819 Y163.132 E8.20818
G1 X154.136 Y163.486 E8.24656
G1 X153.421 Y163.768 E8.28491
G1 X152.68 Y163.973 E8.32327
G1 X151.921 Y164.101 E8.36167
G1 X151.073 Y164.15 E8.40404
G1 X148.927 Y164.15 E8.51111
G1 X148.159 Y164.11 E8.54948
G1 X147.399 Y163.991 E8.58785
G1 X146.656 Y163.793 E8.62622
G1 X145.937 Y163.519 E8.6646
G1 X145.251 Y163.172 E8.70296
G1 X144.604 Y162.756 E8.74133
G1 X144.004 Y162.275 E8.7797
G1 X143.457 Y161.734 E8.81808
G1 X142.969 Y161.139 E8.85647
G1 X142.546 Y160.497 E8.89483
G1 X142.191 Y159.814 E8.93323
G1 X141.91 Y159.099 E8.97156
G1 X141.704 Y158.357 E9.00998
G1 X141.576 Y157.599 E9.04833
G1 X141.527 Y156.751 E9.09071
G1 X141.527 Y155.723 E9.142
G1 X139.999 Y155.723 E9.21823
G1 X139.231 Y155.683 E9.2566
G1 X138.471 Y155.563 E9.29498
G1 X137.728 Y155.366 E9.33333
G1 X137.009 Y155.092 E9.37172
G1 X136.323 Y154.745 E9.41007
G1 X135.676 Y154.328 E9.44848
G1 X135.076 Y153.847 E9.48684
G1 X134.529 Y153.306 E9.52522
G1 X134.042 Y152.711 E9.56358
G1 X133.618 Y152.069 E9.60197
G1 X133.264 Y151.387 E9.6403
G1 X132.982 Y150.671 E9.6787
G1 X132.777 Y149.93 E9.71705
G1 X132.649 Y149.171 E9.75546
G1 X132.6 Y148.323 E9.79783
G1 X132.6 Y146.177 E9.9049
G1 X132.64 Y145.409 E9.94326
G1 X132.759 Y144.649 E9.98164
G1 X132.957 Y143.906 E10.02001
G1 X133.231 Y143.187 E10.05839
G1 X133.578 Y142.501 E10.09675
G1 X133.994 Y141.854 E10.13512
G1 X134.475 Y141.254 E10.17349
G1 X135.016 Y140.707 E10.21187
G0 F7500 X135.408 Y140.893
G1 F1500 X135.998 Y140.434 E10.24916
G1 X136.634 Y140.039 E10.28652
G1 X137.308 Y139.715 E10.32383
G1 X138.013 Y139.465 E10.36114
G1 X138.741 Y139.291 E10.39849
G1 X139.483 Y139.196 E10.43581
G1 X140 Y139.177 E10.46162
G1 X160 Y139.177 E11.45942
G1 X160.747 Y139.217 E11.49674
G1 X161.485 Y139.336 E11.53404
G1 X162.207 Y139.534 E11.57139
G1 X162.903 Y139.807 E11.60869
G1 X163.566 Y140.154 E11.64602
G1 X164.189 Y140.569 E11.68337
G1 X164.763 Y141.048 E11.72067
G1 X165.284 Y141.585 E11.75799
G1 X165.743 Y142.175 E11.79529
G1 X166.138 Y142.811 E11.83264
G1 X166.462 Y143.485 E11.86995
G1 X166.712 Y144.19 E11.90727
G1 X166.886 Y144.918 E11.94461
G1 X166.981 Y145.66 E11.98193
G1 X167 Y146.177 E12.00774
G1 X167 Y148.323 E12.11481
G1 X166.96 Y149.07 E12.15213
G1 X166.841 Y149.808 E12.18942
G1 X166.643 Y150.53 E12.22677
G1 X166.37 Y151.226 E12.26407
G1 X166.023 Y151.889 E12.30141
G1 X165.608 Y152.512 E12.33875
G1 X165.129 Y153.086 E12.37605
G1 X164.592 Y153.607 E12.41338
G1 X164.002 Y154.066 E12.45067
G1 X163.366 Y154.461 E12.48802
G1 X162.692 Y154.785 E12.52533
G1 X161.987 Y155.035 E12.56265
G1 X161.259 Y155.209 E12.6
G1 X160.517 Y155.304 E12.63732
G1 X160.001 Y155.323 E12.66308
G1 X158.073 Y155.323 E12.75927
G1 X158.073 Y156.751 E12.83051
G1 X158.033 Y157.498 E12.86783
G1 X157.913 Y158.236 E12.90513
G1 X157.716 Y158.958 E12.94247
G1 X157.442 Y159.654 E12.97979
G1 X157.096 Y160.317 E13.0171
G1 X156.681 Y160.939 E13.0544
G1 X156.202 Y161.514 E13.09174
G1 X155.664 Y162.034 E13.12907
G1 X155.074 Y162.494 E13.16639
G1 X154.438 Y162.888 E13.20372
G1 X153.764 Y163.212 E13.24103
G1 X153.059 Y163.462 E13.27835
G1 X152.331 Y163.636 E13.31569
G1 X151.589 Y163.731 E13.35301
G1 X151.073 Y163.75 E13.37877
G1 X148.927 Y163.75 E13.48584
G1 X148.18 Y163.71 E13.52316
G1 X147.442 Y163.591 E13.56045
G1 X146.72 Y163.393 E13.5978
G1 X146.024 Y163.12 E13.6351
G1 X145.361 Y162.773 E13.67243
G1 X144.738 Y162.358 E13.70978
G1 X144.164 Y161.879 E13.74708
G1 X143.643 Y161.342 E13.78441
G1 X143.184 Y160.752 E13.8217
G1 X142.789 Y160.116 E13.85905
G1 X142.465 Y159.442 E13.89636
G1 X142.215 Y158.737 E13.93368
G1 X142.041 Y158.009 E13.97102
G1 X141.946 Y157.267 E14.00834
G1 X141.927 Y156.751 E14.03411
G1 X141.927 Y155.323 E14.10535
G1 X139.999 Y155.323 E14.20154
G1 X139.252 Y155.283 E14.23886
G1 X138.514 Y155.163 E14.27616
G1 X137.792 Y154.966 E14.3135
G1 X137.096 Y154.692 E14.35082
G1 X136.433 Y154.346 E14.38813
G1 X135.811 Y153.931 E14.42543
G1 X135.236 Y153.452 E14.46277
G1 X134.716 Y152.914 E14.5001
G1 X134.256 Y152.324 E14.53742
G1 X133.862 Y151.688 E14.57475
G1 X133.538 Y151.014 E14.61206
G1 X133.288 Y150.309 E14.64937
G1 X133.114 Y149.581 E14.68672
G1 X133.019 Y148.839 E14.72404
G1 X133 Y148.323 E14.7498
G1 X133 Y146.177 E14.85686
G1 X133.04 Y145.43 E14.89419
G1 X133.159 Y144.692 E14.93148
G1 X133.357 Y143.97 E14.96883
G1 X133.63 Y143.274 E15.00613
G1 X133.977 Y142.611 E15.04346
G1 X134.392 Y141.988 E15.08081
G1 X134.871 Y141.414 E15.11811
G1 X135.408 Y140.893 E15.15544
G0 F7500 X135.265 Y141.579
G1 F1500 X135.799 Y141.086 E15.1917
G1 X136.384 Y140.656 E15.22792
G1 X137.013 Y140.292 E15.26417
G1 X137.678 Y139.999 E15.30043
G1 X138.371 Y139.781 E15.33667
G1 X139.083 Y139.641 E15.37287
G1 X140 Y139.577 E15.41874
G1 X160 Y139.577 E16.41654
G1 X160.725 Y139.617 E16.45276
G1 X161.442 Y139.736 E16.48903
G1 X162.141 Y139.934 E16.52527
G1 X162.814 Y140.207 E16.5615
G1 X163.453 Y140.552 E16.59773
G1 X164.05 Y140.966 E16.63398
G1 X164.598 Y141.442 E16.67019
G1 X165.091 Y141.976 E16.70645
G1 X165.521 Y142.561 E16.74267
G1 X165.885 Y143.19 E16.77893
G1 X166.178 Y143.855 E16.81518
G1 X166.396 Y144.548 E16.85143
G1 X166.536 Y145.26 E16.88763
G1 X166.6 Y146.177 E16.93349
G1 X166.6 Y148.323 E17.04056
G1 X166.56 Y149.048 E17.07678
G1 X166.441 Y149.765 E17.11304
G1 X166.243 Y150.464 E17.14929
G1 X165.97 Y151.137 E17.18552
G1 X165.625 Y151.776 E17.22175
G1 X165.211 Y152.373 E17.258
G1 X164.735 Y152.921 E17.29421
G1 X164.201 Y153.414 E17.33047
G1 X163.616 Y153.844 E17.36669
G1 X162.987 Y154.208 E17.40295
G1 X162.322 Y154.501 E17.4392
G1 X161.629 Y154.719 E17.47545
G1 X160.917 Y154.859 E17.51165
G1 X160.001 Y154.923 E17.55746
G1 X157.673 Y154.923 E17.6736
G1 X157.673 Y156.751 E17.7648
G1 X157.633 Y157.476 E17.80103
G1 X157.513 Y158.193 E17.8373
G1 X157.316 Y158.891 E17.87348
G1 X157.043 Y159.565 E17.90976
G1 X156.697 Y160.204 E17.94601
G1 X156.284 Y160.801 E17.98223
G1 X155.807 Y161.349 E18.01848
G1 X155.273 Y161.841 E18.0547
G1 X154.688 Y162.272 E18.09095
G1 X154.06 Y162.636 E18.12717
G1 X153.395 Y162.928 E18.1634
G1 X152.702 Y163.146 E18.19965
G1 X151.989 Y163.286 E18.2359
G1 X151.073 Y163.35 E18.28171
G1 X148.927 Y163.35 E18.38877
G1 X148.202 Y163.31 E18.425
G1 X147.485 Y163.191 E18.46126
G1 X146.786 Y162.993 E18.4975
G1 X146.113 Y162.72 E18.53374
G1 X145.474 Y162.375 E18.56997
G1 X144.877 Y161.961 E18.60621
G1 X144.329 Y161.485 E18.64242
G1 X143.836 Y160.951 E18.67868
G1 X143.406 Y160.366 E18.71491
G1 X143.042 Y159.737 E18.75116
G1 X142.749 Y159.072 E18.78742
G1 X142.531 Y158.379 E18.82366
G1 X142.391 Y157.667 E18.85986
G1 X142.327 Y156.751 E18.90567
G1 X142.327 Y154.923 E18.99687
G1 X139.999 Y154.923 E19.11302
G1 X139.274 Y154.883 E19.14924
G1 X138.558 Y154.763 E19.18546
G1 X137.859 Y154.566 E19.22169
G1 X137.185 Y154.293 E19.25797
G1 X136.547 Y153.947 E19.29418
G1 X135.949 Y153.534 E19.33044
G1 X135.401 Y153.057 E19.36669
G1 X134.909 Y152.523 E19.40291
G1 X134.478 Y151.938 E19.43916
G1 X134.114 Y151.31 E19.47538
G1 X133.822 Y150.645 E19.51161
G1 X133.604 Y149.952 E19.54786
G1 X133.464 Y149.239 E19.58411
G1 X133.4 Y148.323 E19.62992
G1 X133.4 Y146.177 E19.73698
G1 X133.44 Y145.452 E19.77321
G1 X133.559 Y144.735 E19.80947
G1 X133.757 Y144.036 E19.84571
G1 X134.03 Y143.363 E19.88195
G1 X134.375 Y142.724 E19.91818
G1 X134.789 Y142.127 E19.95442
G1 X135.265 Y141.579 E19.99064
G0 F7500 X135.659 Y141.75
G1 F1500 X136.189 Y141.286 E20.02578
G1 X136.768 Y140.886 E20.06089
G1 X137.389 Y140.554 E20.09602
G1 X138.043 Y140.294 E20.13113
G1 X138.723 Y140.11 E20.16628
G1 X139.419 Y140.004 E20.2014
G1 X140 Y139.977 E20.23042
G1 X160 Y139.977 E21.22822
G1 X160.703 Y140.017 E21.26335
G1 X161.397 Y140.136 E21.29848
G1 X162.072 Y140.334 E21.33358
G1 X162.721 Y140.606 E21.36868
G1 X163.335 Y140.951 E21.40382
G1 X163.906 Y141.362 E21.43892
G1 X164.427 Y141.836 E21.47406
G1 X164.891 Y142.366 E21.5092
G1 X165.291 Y142.945 E21.54431
G1 X165.623 Y143.566 E21.57945
G1 X165.883 Y144.22 E21.61456
G1 X166.067 Y144.9 E21.6497
G1 X166.173 Y145.596 E21.68483
G1 X166.2 Y146.177 E21.71384
G1 X166.2 Y148.323 E21.82091
G1 X166.16 Y149.026 E21.85604
G1 X166.041 Y149.72 E21.89117
G1 X165.843 Y150.395 E21.92626
G1 X165.571 Y151.044 E21.96137
G1 X165.226 Y151.658 E21.99651
G1 X164.815 Y152.229 E22.03161
G1 X164.341 Y152.75 E22.06675
G1 X163.811 Y153.214 E22.10189
G1 X163.232 Y153.614 E22.137
G1 X162.611 Y153.946 E22.17213
G1 X161.957 Y154.206 E22.20724
G1 X161.277 Y154.39 E22.24239
G1 X160.581 Y154.496 E22.27751
G1 X160.001 Y154.523 E22.30648
G1 X157.273 Y154.523 E22.44258
G1 X157.273 Y156.751 E22.55374
G1 X157.233 Y157.454 E22.58887
G1 X157.113 Y158.147 E22.62395
G1 X156.916 Y158.823 E22.65908
G1 X156.643 Y159.472 E22.69421
G1 X156.299 Y160.086 E22.72932
G1 X155.887 Y160.657 E22.76445
G1 X155.413 Y161.178 E22.79959
G1 X154.883 Y161.641 E22.8347
G1 X154.304 Y162.041 E22.86981
G1 X153.684 Y162.374 E22.90492
G1 X153.029 Y162.633 E22.94006
G1 X152.35 Y162.817 E22.97516
G1 X151.654 Y162.923 E23.01028
G1 X151.073 Y162.95 E23.0393
G1 X148.927 Y162.95 E23.14636
G1 X148.224 Y162.91 E23.18149
G1 X147.53 Y162.791 E23.21662
G1 X146.855 Y162.593 E23.25172
G1 X146.206 Y162.321 E23.28683
G1 X145.592 Y161.976 E23.32196
G1 X145.021 Y161.565 E23.35706
G1 X144.5 Y161.091 E23.3922
G1 X144.036 Y160.561 E23.42735
G1 X143.636 Y159.982 E23.46246
G1 X143.304 Y159.361 E23.49759
G1 X143.044 Y158.707 E23.5327
G1 X142.86 Y158.027 E23.56784
G1 X142.754 Y157.331 E23.60297
G1 X142.727 Y156.751 E23.63194
G1 X142.727 Y154.523 E23.74309
G1 X139.999 Y154.523 E23.87919
G1 X139.296 Y154.483 E23.91432
G1 X138.603 Y154.363 E23.94941
G1 X137.927 Y154.166 E23.98454
G1 X137.278 Y153.893 E24.01967
G1 X136.664 Y153.549 E24.05478
G1 X136.093 Y153.137 E24.08991
G1 X135.572 Y152.663 E24.12505
G1 X135.109 Y152.133 E24.16016
G1 X134.709 Y151.554 E24.19527
G1 X134.376 Y150.934 E24.23038
G1 X134.117 Y150.279 E24.26552
G1 X133.933 Y149.6 E24.30062
G1 X133.827 Y148.904 E24.33574
G1 X133.8 Y148.323 E24.36476
G1 X133.8 Y146.177 E24.47182
G1 X133.84 Y145.474 E24.50695
G1 X133.959 Y144.78 E24.54208
G1 X134.157 Y144.105 E24.57717
G1 X134.429 Y143.456 E24.61228
G1 X134.774 Y142.842 E24.64742
G1 X135.185 Y142.271 E24.68252
G1 X135.659 Y141.75 E24.71766
G0 F7500 X136.053 Y141.928
G1 F1500 X136.578 Y141.494 E24.75164
G1 X137.15 Y141.125 E24.7856
G1 X137.762 Y140.826 E24.81958
G1 X138.404 Y140.601 E24.85352
G1 X139.069 Y140.452 E24.88752
G1 X140 Y140.377 E24.93412
G1 X160 Y140.377 E25.93193
G1 X160.68 Y140.417 E25.96591
G1 X161.35 Y140.536 E25.99986
G1 X162.002 Y140.733 E26.03384
G1 X162.626 Y141.005 E26.0678
G1 X163.214 Y141.349 E26.10179
G1 X163.758 Y141.759 E26.13577
G1 X164.249 Y142.23 E26.16972
G1 X164.683 Y142.755 E26.2037
G1 X165.052 Y143.327 E26.23766
